<!DOCTYPE html
	PUBLIC "-//W3C//DTD XHTML 1.0 Transitional//EN"
	 "http://www.w3.org/TR/xhtml1/DTD/xhtml1-transitional.dtd">
<html xmlns="http://www.w3.org/1999/xhtml" lang="en-US" xml:lang="en-US">
<head>
<title>Public Key Server -- Get ``0xDCE310E7864CC8BF&#39;&#39;</title>
<meta http-equiv="Content-Type" content="text/html; charset=iso-8859-1" />
</head>
<body>
<h1>Public Key Server -- Get ``0xDCE310E7864CC8BF''</h1><pre>
-----BEGIN PGP PUBLIC KEY BLOCK-----
Comment: Key ID: 0xDCE310E7864CC8BF

mQINBFBChWABEADHrK0YRtBr3ASSreHEMZP2nJ/cFPiNyo3jHjqV712vN8qpMBEf
gIOmKM5JQ0GMFNpMOTfdA7iDh8V8qEDYwLxDcSntfLr4z9kWQRY1YDnbNkV5UzoW
OYLyB7HF4Kqd6gOVOsMEKdluKMzVxNOUe9b7NJi4dNtAwMR2UaE9K2K6mqfXzljo
ABMeUmholKDl4LgFQ4rnWHiwhp/30LYKVX4OIq9NEMogW32/be+4cegLmVRztseS
uqdWHhU2fikUL8Ra6x43IVBnbzJR3igNk6WEZxZtlDhO28/v0UUW1cKlfUYBA+3t
cRBnsuUtnE998aTQqcRixzCZzs3X3h5EJYA7z2IlAL53cufTxq9lOThdQl4oDERJ
T55YrInXjC+9hpPBGsMbwTK4dcB6pICJjALvGr3E21ZGn2/JiKOV3woRMOGPBCP1
72LvZm5h763NdA7kP1Wn0HUtvacMJha6lLPtXoWDhRgyOLiklqemgPFE9JwtGzOM
biL/RN8QYJHjbs7fsjxB3szyLUdn6M2uXqvvoXn8h5aFYmdKLVgCJZPuKTivJlU0
D5mBN1gDqwlrTG20D44Cpj2ta9WqIJ1vtvZtp8qL09uofMtwomigUxtHV+kCmBrH
NYaGrNv+/bdUuX9cIBgBwuqq4w80nMnCXaJxd+yhvAUxbKPChuQiuoSu5wARAQAB
tCVMYXN6bG8gQm9zem9ybWVueWkgKEdDUykgPGdjc0Bsc2MuaHU+iQIcBBMBAgAG
BQJQ9+6tAAoJECkwEAEAADNE7WQP/2Li6AtLxcIujgUdAFoFg+n5Vf7cN0vVYIVG
BfxjUr9/dPZeLV+fU/QJzlBkiGipAbUrXaDwRO9uukOQOO9rlNEkF4kSgZfz9nOM
4XTTIFtnhJNqT4pJgN4w6uS4NPAdFo18b+q6saJLToMPeenB1brXNxQvQ25psyLk
rRH0DCdf+2bxeMQutWYPWv6Ufk12+5giX2ExA7NFlPwX6H7FTi6ApmijXUwRC49e
lbWLsmt6z4/ESFPtCR+Vu8353uxZuyySDpaLiu0Vwd7elmyYt2wOExWMHgrMiIUD
vjVF9kMfXMdrRWNBRQWGEDncLMLx+J99Q2P5/p4mUQQpbolArAj1qDaVZ/zb8QNT
G5y3OEIKUrTznx6XRDWvU8JWTrHTkKgyBYqSp54r+VzppieieLmK0qx9rdJRYmjW
K1hsDIIkRE1SMJZa6KslgJzzwfNMsIVRg5D+y3AC4A6fvNJUXqWdEN1vgvBvbSTr
hi1zda1jKWjM/OntH5vs5ZFNbUI/I1kFvkIRGb+ao4s8Ow844YeqckzoTegWsx6C
sDZ7TvFOK5rvGzPkGCaeLUS0Eao+0MATp3teHFG+pdUkBHoaYVziMHtFeGjuU47z
zl+AuQWlaBFQNnkalyq4EXBQyanx06gYQFkkxuvmHYv0yW0ax7WbKuFyoX8tZpvY
wMRpnJHMiQIcBBABCAAGBQJW0x00AAoJEBDCk7bDfE42SUIP/jnp/+H0CY+I4d5U
WQcmG+bW5Ln7nMJwJQGLQC6IXuVcY3d48J7sVVzL5zFlJrabXkFp/iTbg8Fsi0fn
p72exr0+ybTH72Zs/rLxMHVm9zDXuPeuLyh5eQR7FE603D2RyYcCFAsuH/go2gQO
x0KD1RfMJIBBNzCzjG7ZpgrhEUke6JTuSgY0Em9GBiHX8H5u/dFotEFH5A8IhNoG
nFVIcM9yziG5Kg0GsH4RHXVka8XwR3TpdJmsOJT26QnQoVNMBTFMeN5elAYTOjhz
LsyRHmHH2ncuGu91RWoIlSi+ymjxutgeMVSi9wUjGlHZ2Ty5DFv45Ucr7QNY94E1
mkdWLK7x9erc+crW8BxpMBX5AdddbfJ0DC5ttcSokfLagEAHISep9QNhzaqfoMBx
+nyEhBBkR08wRitRsUJ53PnLsfbcuTnnl3nhDyTK47GyNt8Ad/LziOtK3mNax879
EI9O5MTseUeBDHKnp6/g9OYn26PLvfGMnITN63WQp3G9LH4mEUc5m1vSyjmzaBCd
DGgfvUp/2+1wLO/ECgTuvYytbGtyB6F55a53SUuw5hajRa5RWqXzrJD9JG/Ak7xP
S7aIgg1E+g8v+UeLW5INDGZytDeOrOl77L0ou+g129XaEE6ifXRccXYgfCqiev9V
N4CrLaoU3L+kaqUrKbYbaeRgF29miQI3BBMBCAAhAhsvAh4BAheABQJXZrwGBQsJ
CAcDBRUKCQgLBRYCAwEAAAoJEKzh8zy5M7u7CAsQAJKG6BEdleDhLtwSqNPQx53Y
SA1nuLPxljvYNbYqL/Dhh0z05syHaZ40HwG2t+uJBwmfe3nbCMLFrnMHhRKqvq2y
7geD511m6e+n+6hR2euft7njUwUHRV/glybJzWFiUum7fSbaFmwjelmX4lFK7Klv
SwaDLpylIZZtVpyUsL8B0ydevPV+v/Gv1sdLsI7NzhTAhCEEa/XQ7ymm3MF7rzk3
BSISU9LdVyynzocUGffNhPOg3VZxd2AO8MYt/Wrex7QYb9VjHTzN9VoVI/YijmQ4
qUmAvbuZLqdgLinXXMelZQyhGAmuj40LE7OCxuHNtxFMn3fEz3zeWjuRM7TUPuAu
CyrhG66QtdyMzDYcfyXm/ZXBBOA1RWgSM354Zr3GVPvGO6olkL8rjGB4+8TZW3ia
T+HE/s+yjjMrUSXvvNSe0ZTECNQPf+jFozj56fxDxraqPNNqKNVwpH2yMhpyTLi3
To5WhcnCEWL8dD4VTu4afesKV0oHh/lIiuxqEg13uq81V0FxHBZqX70tH9s9M+9s
6s2WBo7eEyX/HI5YiHQ+XXoZ97mRgVAgo+ZtXWOvUImiqpXpCsk8eRPQj7mM0saM
LoclAvUWef293of/ClFxny7qEavZKwVExYaw2GDosjxZwGhxI252UmwNjuAVY+Se
eq8B9TYkVXGNIIIIsBsMiQIzBBABCgAdFiEEXT4FJkZynk6F8Fs/2SnymSvvCjMF
AmLg4MIACgkQ2SnymSvvCjP45w//U89b8ws9XHb9DCSN6mHzdBRP9ExyLgq1/lHb
sEOmnpw7Q8nhwWua6L6zPPG83j4TBRrkLYwonnTGophVi1r4e79XFqyZ6drqnCS4
NS+dO97MFAOEyZVY+7Q6w1/96hR5O0kZ/9xJsTajS+2vVRXP0i43vKXLvUwWD/pe
Nats2bSEVn3VswkBxs9NdjdGhwnJKQuwRxtW6skmx6mA/TNUsUxmEo7hvVQI4VDl
UOQlNEaPIYn2rcjN4FjdUeUs2I6OBMmE1JQWgz/0qQSEz6kxRFMAl/qMfquhh/LS
1LqofgrJzjqL5D8engk0DZZYutYt3TPIiRkTraWVPs3htVpGdgoyw7pztxpoqD21
Xnfl2EvWup7RGvzMbUqlfEIf9d/CkAQnMq4j8WAKg8y1BnJjuVnj48s1j1s5/RPX
KaCQxp8M8+5i9PApmVFwvg0GQlKvpO1eQpnHlS3+jdJ5mPd6LAHKX5lj6F1+YPaX
KvcqFrbxFNMT5YoAhYh+o1hcRWGvOCrtRP6HmLCj2z3ZflFVUa22nPclqSoyWQX/
r1IpHwt9OBbPVv58xtp7hkBYZMnEWjHewEwH8nOj7F+GK35s6/voBjFJaSS9nNMw
hEGKp10Htnblr/uw2DFViqhvkJZwsCwe1iyu/7HyLI2a6jIfNWt81P9/jg2AhvD/
TprKvK60Jkxhc3psbyBCb3N6b3JtZW55aSAoR0NTKSA8Z2NzQGM2NC5vcmc+iQIc
BBMBAgAGBQJQ9+6tAAoJECkwEAEAADNEnV4P/1yBr+VwbOA6SA97j8ZSwGfEqwru
fMO0CQce/bibFTSMbYsuWLwP49LNgKo0KJ7wdBuY3n7/LWIxpQRvAf1q+BUGp4QD
xvL8W1I8UOh1rFWsO7PXisQYtWGQGaAri3E6nlFC0gGjDtrmpd5hrK0SSo5JC2kW
XJS/G/j0owqbyg/yrjsu2HKOvNGcZZ1bv0tVrFWHMqIrwlOgsbUXrjtxZiow9OWV
Wc3LfNRxMamOqKWIVbF8IcwwcLXTaR4AegP0uFj0LPL3/STI5MwHzeYRsl6aUmtl
KWhS1X3rK9hPy4frrKwj/wFpOQHfbCEciLh5W+2fQxYXOpoRk1CkKYJ1fQAWbEzD
+vP/9imtKtxenswb+ZLRqsDSX0u7WaT1iN9Fe6dcG8MfjZ7mfGDwcFI7jQChNxhV
3JCqrRxiN16D0xw06n/EyrxvqPk59nhe0pNwXD6mXOu6aOWFDIg5Zbeilgh1HtQh
ar9TBZvWfr1FZ43WGwa+dNpk1Xk+2a9qIbJRfGxnvY1W3lTUZWmhJ+51nZmVxRcL
chAqacDukimq98ZsJslIPM9ZxTW9TsVQbdG969I01Hr1vnZCz0+eJMQaRIJywyCZ
w7IGbUBPT507MU+0vYKtiy9mFGN2/7IsF7Ep8V/DD2Zqysr18bbyhgdpG0oeoC60
Yf00+zL/ijMUP3+oiQIcBBABCAAGBQJW0x0zAAoJEBDCk7bDfE42tRcQAJna3YY+
/sdpD5JFjKaFDXCOxFazJu673ufpOjMyyDOmCenALAKSoHJ1FYKhfKtdD0IBvKAa
d2TULaWytgPVlyOZsu70k04Th3AW2RHW8A2M+MzazHakyNyta5zFixP0BD9ijZp5
TWhRUaTuHz+WEYhPsqq8BUDlUmSSKXUUg0J8RWzPXB6xvdXxidO6x0Jc+1zw10uv
zYDdB1Q/0YUp1DmmviYzXBwJWnszgbT/TkrVXkaciKdyvp20ofgGv/bkILUafdjB
rWHwYybmg+NDJ0sXpbeBshVB1Sj4FLFM92hs/qQT3UzKd2O3kJ37SlhU/143BjVT
0giNxQF/Ln5TTxFGIVIMzm9vr4J8KrOI9mSO+BqA5gv4ONiY+9kstFvGX18AAc8g
jCivrbsnGzPrB0CTY9OLk+cQzRZc/FHsCis2NB0zyBIms7IkPER7RYZa7PgzHZlZ
HVgYsXBqY+KT3jQVmETHEA4edwhq1IjY14MrktuGa8fmtiUAyhb3bpHOav9COJtd
lAb7sYTs8j30Izg3whjHKZ428c9/SGtIAR2BG+tOLoKG3XS9cyq0PoGYDkZUl7dF
HVAoOSMDzKFTTwBH17kuTRTOg4pyHHRtJZuQ649G8/vEmeXi4KthP7iQXPfXD8mt
wGvvmzWIyVgBcHdi/eE/90c2T2WTcQ8ad9RmiQI3BBMBCAAhAhsvAh4BAheABQJX
Zrv6BQsJCAcDBRUKCQgLBRYCAwEAAAoJEKzh8zy5M7u73hQP/3KC8ioIRu6znuF5
xAos/nnFJ9+avjWhCaf27reDezyEU6YDpqZLlRWLpYHvSQ0jYeh7u4ivCcsUdQ0p
lXl8sZ54A4lpLlUHVAi2amrzSmq8hygkdwQwZ2jpAeZvFinfZZXe5/6BJ+QREIAq
aWL30OU3QiXnozaSIseGwEtFhBThsNoAh0AwD53owvd0iMfPPTtm+AI36KKWNh3+
44gTDwLnwo7+Y45cYOqd1MlMjb6z3k/SbVqXYRyYSbVgqDogHI9Iws5ZAyJRGFWM
Q9CpV45T7rT37WqXXD9DV6eZe8Yy+PWFNhiZG1sv0LoPc+toh8lpXphdD4tb7+8q
B/j4kNUaGWQwgIK5MxyqKuBIBA5VXxpk+U6XHypN8brCQcaS2mbDcpVcCKm6c/FG
BIftCYi4N4wEv0oASHQ2DOXg2014eoMZLxDfczNrlOjRAzEP+EE4OaWzUU0tzReX
m6S08lO77F7180BGfgGjVgjVqQF/swmMsICTMBJHAMWlsGTc0iqeyXRMifwGHoCK
QRZTY8BLbAUtt/5DMfYqch86UPHIaH0lFmYDMlaabaNVWo6xUXx3xYJkl6C5gi0j
A3n1OJsFtVYvIyzutw9wFypTSgi5VJlksPv+/TL07vkvYAd9LVtuBcP74QGGNeYw
5904A40ngi3moUqP9sE0fsHONU2otChMYXN6bG8gQm9zem9ybWVueWkgKEdDUykg
PGdjc0BkZWJpYW4uaHU+iQIcBBMBAgAGBQJQ9+6tAAoJECkwEAEAADNEOXoQALJ5
2aE1tLxEKEDzPHQLlxE99RZ6EPEP5Y0Ylx/PFl79AeIa6BmctTO5sG8IKs8wB8Wb
KuAJ0snnCIkg+m8DH+i4nPLJLl+Vfy2fh+vs6xYYYIonZ2oDsiT/JiCdKf2BuvmB
zRl6SvpMHIcwOLuZra3AZudH3MrURrhnmKbSrhDdDY38YTl1Jz6Tp/KJl906lVHa
llmj9/Cl4qcpyww9AgBcFA5xmI8p11iFA6qISuUXz9fXRG0YMKVl0xiNk4oojXm4
VJ8cTiXHDDC+EujJ38nvsl/m2ks3GAaQwyrq6ZjUXQURB61rND1SKZo6G3lKTied
K4NlzWhFb8dzFGHQo0Y05panwLKJGzYmJXPOqaC2ZqUs7ih4glhGULvz7WINtY28
afT1plkDzAeYAVpRLMFvSk0wue9opJdHCSOIT/rTPZY/agZYqXj0H5K3e5t0sy11
I/c/ruyurS4vSvo2yZz/jlLzqRb9a4UGzpUWnhxpTLK1Ey0A/ThYc1GpDAbjL8DO
bsf3JzsVWaDEAoBib+iQrKmvPms1DwhlhU88wwhaZ9QWHown/VSi6cYExkz+pYwP
fk8MIXhUan4wy7JRkS9+kp47zI6MM2uOkuGeGaDWzWMzDN1ZhC3Fio2PUDJLcOVC
f9CAkzeWoVze2C9cOK48h0BbsNU09YmkPFqK0NlEiQIcBBABCAAGBQJW0x00AAoJ
EBDCk7bDfE42HKkP/3lQK+gWSuVXK7YkCmfeZ14+9dWsIggx+W9BaNIA3G+OcLta
4kpgbh3kCgl6hZgJxL3sj6R25222ERdl+1tw+x3EgAi7TBNdUoZI0+vhxORPG7N7
r19ddiGDtnvjsoH5vzxgpxmsdeSpknc9aWAkADStnzqfZqjhXenAXUiuvyex4HIe
yIbw3OlsDRyyXsk4LOAatwnaQan5a+kvhfKTqc4Ed5IW7h0V4dm97eRzAxWfCDko
RrPZ7bRF2ICCQjFcdMi4q4c0QU5vhbN3aicLj9ae2BwTIzMPGyFkW7L8sqqnoUxY
BpmgE70eS1Z2IjyWE6eDz51JnFeSK+/fCHeaqsggZPbazC11AM5JxpluSwwAHWi7
xUsevAVfot+dnMKxHZhyeWw8/bynDwTpJTCAwH46DXB28RNaOyWLyIiVa2tigIXv
kcly0SIzotxBT33rRwmM71pQrym93rDOACYEkonzuJoAYsyyZC5UPtbjMVldjPif
abxWajUPqFEpyQmV8hYHj74aal1z87Jw5uMDmc3R0HRpWTkUFDxNrupAHHgBebTX
lXPwf7BuqrIhY+llJVjU+dYZ7pPLFuPR6FlpGvK9OWE4+fgMmwSABOIkAcJ2hyP/
P0Q+LjhHS+tibmSgJsJ/1FRIU6sAbEIBrO4eok/dTxNVHhxEC/FRdlNCEDUEiQI3
BBMBCAAhAhsvAh4BAheABQJXZrwGBQsJCAcDBRUKCQgLBRYCAwEAAAoJEKzh8zy5
M7u70JMP/jjjWBPg6CWYt5Mg01f1lEB0+IFU+H6B316p2NElYGRvj8du3HhUePJ1
sHRt7qAH9jpWs6YOVP7ODyY3hkIqU9P/ym+rebc6Evkx90lvECcFppAI8vVkTAvn
OGrvO6eLFrhWyTaPbOYbOX2kn3EYG1GeoKbEXCDoodoVYIQotqHGg8HDEcr4faAR
DC1sJL5KiANmSdPPXtzoRLQKJWB8F39zLpYFAF9Hw1TOyGMI9x6qdGcEmifeNwSQ
Xfr80cA2/KyqisKFatOOe4mq9WYK34jWjFoy+6oXemmUKBoddT24mgrwZvNgKwlL
twCk6xGeSv8/nmJC3bfZKQyJrqGzyQhFRzWj1aveGAdcMuzLRCK/g72CXSOMse1+
dfm7W4chcJmK3OWxuvoxSlp7+n05iX0qs5yIdWRYqFIU4eGXbjvtG1Uv8gcDrbQc
HPgsfQBIqszFeI380LYzKHroQKpUPKq0Z07ec4AUSSjwecYdzDE0611P7bdItpa4
C0V0G9zrGnavZHRSzbGWb90TTLDNU7q1+By+u0ia0WUKSXIzpo6m7YuvwIiC49HM
9GCU3XMv70JuTB2h/2YNfuRCm6qlWzS3yIa0ku1Qeb3ID/Cu98blweTpHuCgOAJE
yVoRya0+RHLtl/modJ2/vELRqnFzcpl1BZrC4evlDiP/OXbUesmdtClMYXN6bG8g
Qm9zem9ybWVueWkgKEdDUykgPGdjc0BkZWJpYW4ub3JnPokCHAQQAQIABgUCUgkZ
FwAKCRDbIhppAAAAEZ0HEACGCttzQAnfn/pGdYgRN4pWatWMo5C9v4PURWGM8tRV
AYKWHBi5MEkkUwpzqybd6w/gpXs8PSJbBRKIWtoPQPuHZxO5xBnaw5NUxOmoS9/l
vQmFy7sq8VtLvIhSLbOBbGE5Ae4xbYN2OZaRzN8sdQPmL+GUd2PMXbREgU526lTt
omPz7uuOUIPTT7k5ao9W47iqlrRH2jX+ndxS7JnVp7oUzWU0peFf/6jrr7iLDglG
hq3z06bmKmNsYhqRyHBtmopUrZAEnumFr3kVKZK/6A9DrlosgSMCg32HujCOdN20
KYig7E2M/kwqKyli8xcmLGquZCqyocJHraYGr+C6P+Uwmm+vRLNvqKEGFw2dJ0iE
VOCod44QNMvQ7bL2pUTKPmTgHrbqPFeZJQ/epsWPJ+GVij1/IYtrulKnQpUREKut
y9cfF6+CdL3a9ar8Bq0t3uHuqEmRGAwX5vejxFT0q6BiMifAwzqEvEvcU8WBTXEL
+eflFxhXt1k/bJyJIiVS6WzFDBMdgiBRk2IW82gWCnBLZHa6MIxVfW7FT8YGUWxu
qQ46F/GGl1F2TXkmGnDfCSVnK0J1kFxFagDEfcABxj4DrkXOV92bcGNnlj9gCXCy
lWf1wzWsWaCb4IbOgPKNtRuM3f/LZzPXkFXZ8tNRk6GJUldjdWBbc3djnRz4Sphg
rIkCHAQQAQgABgUCUhFEUgAKCRAyzEqsAodW/5eCD/0RPND/gwLIMm03uZH3eIGj
13pvsFiZKyL+X08yhjMhyox8yBHz1Hu35xB0lcUUkpydRLznPaROQ8RX3AHaBqdl
fWWp+gQoLkd2wx/cTdBGrbbedCBdlrfDs+AOyN6vboaGYGD+x1NtEPQm+OaNwHZQ
MjJGkemD64ZJqhStp2zy4bXKrNSJX79o7YmY4G1QG22ehNjOtBSG69O6lgYZ9wNl
oGPqGwgWJbayrbHRDzwSyWQhLgOOucCkFbHCsf4t+6PfGj0gMxZlgEOrEyRvUSU7
EulkUTaZwWGCQLEpsF3DhheO+SFJ9y3RwDM2cbrho89QwhIoammWy46gGqwjO+9j
XaQS2OODiGKhqLlcmnl7yqNsrA3KqpNrmYpZ9moOOnXdSwZ3uy2MzrE2kgqUNAmH
2tfE+2k61pdHFo7UPqNuaKweJt75wwLzQE4U/qMX6ETtkQinGsSgeOA91tWfst6Y
lrkephywo/3v2RZ/adYd0GaWtRK2UdC+kMEIoiMDNNgxKCY0wm5Z8XuGVSc+VdHr
EPieXKIR4ZS/JdaqxjRnHd2tIErV4jKJ3JQnizmDb0OYtqghju70dktRuu0iE0ep
xUF1GJv/Af8f7Y6fN7mYy09SHUPEJYV4qjaDaS6DRS84CXWBrVhBapVbhNXs1yr7
N+5nl2pXmC74TQjwmZZ5nokCHAQQAQoABgUCUglNPwAKCRA6k2GWwJXZQWQAEACe
mIvCgOHCCRcVfIXW03hKXIA+anN2KOJRwD39p9EOxdFIj8aW2l9iagahAmooj2uk
QIKmgNutDgjswpooWKfF9EZgDVxGUiLOmkzr966nMFeSI+2vHrbTrKNEGJkay/kM
ls2rJn1kEWohqBxyi4cTErAsiY13KF9WMDriRL0phTc70hom4FB/euweLO9fuivs
D0OnBpKDnVtVuTnhYVBZbgL73fBRAJ9AjG/0Yx5GhsEd9dDgQnuybsgLxLMXra7T
k3Mr6TWxDmrlJsZMIjf48dSfmIYV5z+M15tO44oWNnBJyHWsGOCrWvtdb2uO1cUZ
V46sMygz4XE2a9XODto+XNs/Zv/wUl8AXsOfcD63/6xbPKBHh95oUfnVhZ6rVw48
lioBe6hvYet3UpDtRQ/SNt0I7eipImgHNU2gnwSFP23qXD3xtwZSulNjCq7a1gCT
Qc7EqSX+Hh4kSAoBGZBOblbP4yKq2mgXvT5XZm8GVbwEXMzOhMHTRGzmREv01q8k
7QvDasMe+rvTZcsXopaKrXEVe8mULDzTb4JDQEegkrXnx15zLXCZxZtB4WyvOFXE
JYhpNVn68wEf6+/xnK3YxwUzxudWZH+rHmPgmwDYOAnIYZ5jTdFta6onr/qsGmah
gyi2UaYecxeIz88jNrPY26BoVRHbdDlbbHzJG9XaqIkCHAQQAQoABgUCUhlDTAAK
CRBXWfNQAapKZFVaEACqdwO5pXgXFMe5UcUFNzjjy+kOL9fH+kXc8311BtrcidUk
QO2P1nMZPibSamGxm4pKE6czPEcqw3CWekLr9a7sV762dyDLB7bt2oTwfTUaHj54
CKV2jSrnUNG48rKrA233pFVtPulgS98tAnFaX8Evq9KwQbRMDTcHv12cl+EDKa3q
Dr7sr87PSCgjdZLzFQTxOb/5GtFKZsKnraBQcxBdrtHchkTM3YMBwrUqOnDeOXOH
5vw4r7Q5eBYBn6cFGfsX/0DTBnsxsrbT7m9MBpv2L4wTRBVH7TrVeJYjBZfpnujn
nWMkv67voUfkA1tHIwMATqm1lTZXwrG+Oc35WpNoCAX/qdflueeX1zovaHThOu5E
sIso4g0qiF8shHCwqN0t9UUBE+pAR8cbmO/OMvSbSGa439J8TSbkEYSqNhpSrSey
oKNo6tJetDpWixzm1XGnQ1J3gS9TODs6xYhA5KMW8nRcnPX6zUgD1t0tJg8Yh7Np
akOGguxbysFWL23RO8az+RvqcDeAqxyNy/eX2kSdlIixaDJI8tQkwtCgQhI+thnF
La7EWLCxR5p+XJji0GX01QRoO6dAFUtHf4zNwrOKghezaiTD9dFfPlfCagM9jIkT
iUdFera6+7mjtEOOSp6iUpMgvnsAynMmihd35R+K4iig+7sQXJLVSFtgjASgtokC
HAQTAQIABgUCUPfurQAKCRApMBABAAAzRPXxEACjlqvfKlHb6vFzk+QXN2gBNZdu
ChsgIM8i+2vcHbPg4nNIOsJ/oTe9ZQNUYG8amHkzGSTBeUijnvrk3e/1nkJ/4hO1
IujmBmgXDfUXNlNBCs/9MDLWdgMKW8+8gUoVjqFYN/RH5o7uOjNBSHkuHcNakfRt
usMUNS66wJAM1QIEp7adV3TnzwhQh2no0VoxSgm1HkSOJprQVOhTDs23vSuIVavs
23lk+phBPZW5qInKJx7GYfHex4AcuqvZuK78voDiztK+o6gDzs1VeZH5HEh1uTjI
P4YBfQsYQCmZVIOxnW6d7n4teORQjiI6pHPMRzxOwwq+U5vTkYFjEcR0KJY65Whi
MLMT9DQkgMzu3J305yNdRKazHBlQb5JFwm/G/y36RYN4jPt3mvwOS4PBXAy/6NLA
3SGXH7ZucXUtz5+gqnH0oDXvSBBSVcnN1aIBS86RD9wRHX/C9uck4wdQiNWRt2GP
trr4mLoET/264+oJATTXD05nDb+xdLvjWVxqQR0/xDj/issPPp4FkzLLxGHP2CCr
G9DG94ZuOsO+Bf9itA+4rIvkaU+C2sLrrc7jp1z+pSPszmPNFngxXn7DkND2Qs8J
nOWr/273zQbnZ6pQrG2ydvyCT3JkR0USOLU5O5NsM8JKEGNUEpNDxsu2XuIgj/kN
p1ropDMR7qEJ3djeGYkC8AQTAQoA2gUCUgp+pMASGmh0dHA6Ly9tYXJ0aW4ta3Jh
ZmZ0Lm5ldC9ncGcvY2VydC1wb2xpY3kvNTVjOTg4MmQ5OTliYmNjNC8yMDA5MDcx
MjE4MzM/c2hhNTEyc3VtPWYzM2IxN2M5YWY1MTViZDk4YjI5MjdjYjQ1M2E5OTJk
M2Q3NTAwZTlmNjcxOTY2NjE2ZTkwNTEwYjk5NDA4OTUxMDhkMjQxNjQ4ZDFhMGVi
NDZiMzJiY2JmMzI1MWExMzZhNmVlMWUyMjc1NzQ1ZTExYmIzMjhjMTRlN2U3MjYz
AAoJEFXJiC2Zm7zE2t0QAIlq8Eg1ZJGDkW2hA8xRHtYIZunQN2GdQEIfpLPJ31E3
//bCNZuIDl83ax9gLG7dElBoL2Y4UdkwuUntBoJehECnvWiMbLPv4tKm7zM4BCWW
y01YgyCj/Qt03HagXhyaMZEgNuNteUoHhzWJ9wQQhUiKtA5lbdY6hR0F2Hxwdr3i
zkBKxtNiv03+dueuvH9mTWqRaZ5Tm8oxLXXXAo8Y2G7n9XOUZprBn2yFqllQYxgg
QVpd22rnekEMOwqgBysvxq9oji+7qzxPtXeTyiBEFhn4VPmAPYTpmoDiye/shfPv
o7yq/hZCIcrKcREJHyoCvRVXyIBVHWdn4B/jSWHPhm7Jp+cxCrSzPzdg2Eq+pp8n
+lLpZ5VwmctTetEr6M5vqk9LdhWRkYlWBdrDKuSqD4P1s/K//0Cx1qQehweaYFuw
FcS9oQwnI/J1sAcQqUgz/cwfM7tcc/4HQo0IyigdAwYrNy1r9XN6B6MlyFrh8VDt
snDutL8mgu6QeokFMNoU/VI1lOwpg9at+NhRtLiyZkKrllfMtpBIKkXenqDCEyqS
BjLkmg4sjQA+3bHxDFXuhm9jKtFC7ifeyhZ/ISbis0F8hu5jnEKjUqo770E5Sk5Q
wH6jLkYE/YS3sHgPqVU9wraPKmbJdlKZbDs1io5XriXUneqQBGMQh/GWmNJwde7w
iQIcBBABCgAGBQJSDTYVAAoJEK728aKnRXZFhtoP/ApVNhHFnE0VUr0aO2Ownb2u
M4JOgghJZbAS9hdgFSu6n+2KxevgvqvwAbhiadJGoBjLz1Pq8Pe7nj2xr13/cVM8
1O852/MulVpbYJt8ZVRuqa1hf6Lc1HTZ5jCwMgVOVaYJiW35JEOfXO6mnvEg8atE
cuip7qf2E5J9WKSDM2MgHubOoiPR+R0oxcRyeGatVEOp59e9nt1t02XptKyQTWW6
Yzs1hZzFQbPnYssD6G/U3cAHjHOkYrpuOKS1QUmbaJU5Zw4vAsEuwW/wZ4Hk5COB
0tCe0jiay/hLz/nTdy+R3Nl9myf/tmhNA64S6xhPLt+OB+Oo1Qf3ElaiGR6U8NDg
mJIAM2pms0H9ZmEH9jhffvaUchWNM15pcUoiuhrpJFPPqtdIsl29HgK8BDUeSeLD
n4rxJGpyxMz4m0rFp63o6DgH5SlesgeA5IDBf+gl5jmbLqmGpwz1SQViKcZopbhD
Xg4N5XvPoQas7ePwgBrZBzjsq+GXS0hZXxBqu7yqaxLEqGsaSfh6SehDkXB3hB+d
vI4QTqb2tArVUkUw5oeVuawa4AIgrTNPIqDp3M0/sJm0Rwg4fm6V69pfG7337a/w
EYXZwKgAl4E7RuP1yhaVGUuDFLHi5IBG9W/8ehdSyL8lPlhK79q84HM/ce4j46Ql
aArb3zcylAIabpVlp6ZTiQIcBBABCgAGBQJV2dljAAoJEHidbwV/2GP+L8AQAIjQ
s14T7VlHmJOrsEcDelxAUe2VrPmqhL/WsOvi38BDcwpCH3pvOZitApW+cy8uyXJk
1/OcoGGhE640J3DE23cqVHMYUcfHS9CQDN84ep4TpE/K4wnqsWy2pnv4CapjjvgJ
AUYZfxYLxGmJhv15eJ0cBNDf5fTHBObL3dKbNhq1QO0pxP5qVxQRqNpz7Hholi60
3l6nZgh8Hjo2vlmcKpkQuj8sKg67qLs9JVp6GXvYwZ1QnqxJJFmMhPQ6he/v6Sf3
d78gvHXELJRN76HHPZB0MnbNUKqciwL87gvdDvrUSv6JUhQFXf1nFlLetIDvNmk8
tVc5X5x7C3VCrdtTcF4ePnIjmEjCd76pBE5JEQFuJNE4370YLmyP90E6lng9Gs2s
MOL+bP79qqCxgyn3dYWBrj3X6MPYWP5AWbRnZHhqqj62dfbbSFrJkeT3qlUR4pwC
mlAktVA92XxU1E6dGgF87KCWpUUSqp/NsSMkAU6C5rfPK1BD2IZ2VWZxL4oYq31P
KXJiC76IUpcZcPCMHKIutAqnqe1fc0bDrM0XK35VVDV2YUb5NtSJvC8//B0zyQsm
Xx+dXHEsC3EJMztbjpJtaqzyPHV+C9d272H0IDE1JMkA1HwCVl/2wj0FHlLyivJv
yBlGzapyAGXiI+zhIcLdxLqEThJ5fqZ5h/rS0oDLiQIcBBABCgAGBQJV2jANAAoJ
EMaHXzVBzv3gh2YP/iAul/U6tVKrQLpmItqxF41Ey0P01F5eOlHaiMDv2uOExeBi
eA4tC3t4mt65CUmcXILPIXbatcBMlISqiVdA0jszaLxhE8vs/IEnL3S7NA8gkEtE
rW+v8Jx0koRM7AocE4mshs3ZTZx7SaOnF2Z+t56SEpM6nercyE9y0RiOfN0Wyebw
xIkdJme1ybqw+BMZ2YGLUKRxat9NCfO3z1jKtpyi6vkNMTdFneHvFhs18xguP2qL
zD7/9FZZZ7RIsadCrrUFfGtZq1qOyCPDSnIjefgnhrpa9aCarkKlrFepPm/WUlhz
4qI3mp5eN/f4Kr+TV0OGHc4cOuc7UtnWSpzQigEk7xCe6iFAVmQxsqaJbt5DnXtY
xqGiE5B/1BdOMUQB7btv6tLz/k4zM0HUBoDlKeXYgkjVCyA9exT9zN1nGfvXH/KG
YHGlctuMm5dHKNyFf8n5Srgw1aDVA11lPc5M6LKlJc4pdwY38KAg5XgV+GiylDje
QuNe5NPhX0mSKZ4MXfJsyL77Fj5b62TQlpvm8BmryMIhMYnyLKIgom3VF1ubntkq
e48iwhMvgakfIYgqL+IjnkIWkna8vqOkGc+UUt9Lvssm1yyeLLuCTwR9QAki4lrM
4MJL03QWiQOWUeOjMAUMFOW9tLRxUKG3rfOMHBIE/MM6tw+Ekvnp2aDF9ByHiQIc
BBABCAAGBQJW0x00AAoJEBDCk7bDfE42h3EQAKgAapG0nOaUiuMa0no2p3Y3pT0g
0SOTZlEsMnrXSSPctVh8uNpJsjyh2X8QENUep5O01d7999QQLRk8EqAy4X4uZX1r
I76TxOpsTo/UpWKrFIRChnPllmw7Z3CiHG9o8ig15De3rZ0Klru2hHbCKRVpu0N3
fge+Ln+pNLZsyM1UqB0HeqhG3njr5NWptVevsaoiHmdw8nSfpso+kjyi0HLv8h5O
/0xegpNnOnju/YcF4/UFpvhWkN3p/DAaI4couS6yB3+ScJwkgdRF/5dP9/qPYKYl
pxhrhvxTPaKRwc+/zvRyEoUwBS+Q5v0/N0LRs5fA4/oDz/N5ljY+Re5rKKg6g5Gc
6fH63ZfcB/XoUXbtld750tmIHVth8RL5Eyke37Kz7rJvUu5Xm5Q+vq07UPbMhMyM
3THQPQB5UEZ2/pxuvOKHx7RqPqv1Oc/VyKCFXqIQMago4SRY2MRK5jxqjLq/CdxG
95hEtkg7BZONq5Ur0i+MbrAUFMg2emugajPUZPwJ5i07RmRat1pelDovGP7yVTFV
sKlpMGqwkj8PbQyrgxIkukInf40nvmcrFvKSkp3h4yQ9RkoDBLhJ6MH/qvS3gZD0
ep5UpoWCg3JfGM7COGdFrkrvOCE59VJeAyaBK/ri23LwJDULnSCJSJpmID+NhgOn
D9U3zQpr/2gZXmCQiQI3BBMBCAAhAhsvAh4BAheABQJXZrwGBQsJCAcDBRUKCQgL
BRYCAwEAAAoJEKzh8zy5M7u7ZVoP/1U74pd8zZ1MLKkCCNbVbn6tZy+WJfjoNRrD
fr5mBu4aYOe35b3OfUYhjNnaC0DhIrmPvisvf1ZJWXgF+d3a39EHYwrYWS/83zkT
9hpP7O4U53IzeZ3QxVHev7ECb9EvwB5/DAO9ks6L9etEV870JitPBYNr/Kdoyk1i
2Z+5W2mV94NlLOT8LE2xKiNynHnYUEVqdCMQB7teS+OVx9vV6gQH89mYpyoy/NLb
gsDV4JSzjQeS7nlwWNhwInOlYOIEGfvve+/1hzIexezT0ilG5dgnBhVQQSTl2ifh
e+5lA38nNntli35JVWHTsJ3VXZ3qppAdx3QbxPUO8lXj/3PMf1cWkyy7I9MIqHwQ
Bf/vGwVqrzMDE7HH6Cn4uCCniDdBlgTQPUE/tmptUosY+5oMJQKMSwJNK/5OMAzZ
1kP60bs5yzAgLW5UhauiIUK7npSWaVao1d2sBkYQ8rbMGWUJGxZexLjkotT7DL34
IsMzpBDTgNBtF8vvNyR/C17KPRCvpxWXUAYw3SEjxWhBfc/kyQnnJ+BWDklH7pkm
WPFhzeovfLI7X+7qyI/3erBx8I6N92CJpkNcKotSBFFMMEbG6IddvzESTWDRm1Jt
T1ATlQ8pEIL70D7zjvc8dFzIeAphC/Yee9rA8Gc98s5502YM6bjp+4TP5VWyKaxD
dhEWBAkttClMYXN6bG8gQm9zem9ybWVueWkgKEdDUykgPGdjc0BnY3Mub3JnLmh1
PokCHAQTAQIABgUCUPfurQAKCRApMBABAAAzROceD/45VU8MXB1AdPJHVdW12OUz
XhpWCXBgTCvW6X3QWQgcDcMr9Z92bLOazN2kx8QMQGtwNPGXbnwwmMourCMTVZCV
O+I5hAAMKNIJz8+mkiuiE2Lu/TWzq377tHp1jSW+fQRLYtpbhs1nttrum4+YXMiH
1644N7Hi7XQVjTTIVe62aBlH4SzfQRnkQGqoZn55t9BDM+lAvMgqM66FLBWcvaGX
Y3ElhjoKMTCh7zwBDmHT37XGlpokGVs8MxoAyc6o+0afQQ0V9b9KIvRWtNG7CY6b
BN6i82Vu8+9WHI4PLPa3GthF8aS76x/ePjRQibwgD8KLT0/W28OHIvupqFX2AFX1
N2Jl7DIdOP76RmdteJzhPbr54X8CWJsRGnBdcEH+otkNCGEwPQcLz3NAAkPNjE/y
1SZjXH/GMAKkQgVyqBe0WwlgpVjw1pD3ja9OzQH7db/ba9B3cIhxQFI+d8knHU7D
JyiOj5E23sH0dDQTpUGlsrqJKT1xe8SsOe8zljD//I/h0DGxTQ5UT8orPj2IgV5S
IDHw/qd3VUI1S7OIQCf9hG7r1zC2qST/HGgEhk1C6cmIkw0W61ONHqDnK4QHUHkr
K2MYkPu27+ePKwEDA6N3UYY4MPu7TA1/vYwdHB2BXkhGIoEs/vkjfwVg731dAG0X
6bXJDg0QynEcrJMH+Fvy1okCHAQQAQgABgUCVtMdNAAKCRAQwpO2w3xONvHFD/9G
JujTjUrNZEA5/doX4a/mKBFFL1AfJNdZOcDQi4MOM284L2vwQNz7w2Kt6+eI6hvx
bCNw7w9OKNOHayukdZcFWkAYQEg01YFOkUj06S/+H2CHpHsF/HP7zkMcahUEdPUf
qHhQm0vtlgXEPR2pG3ijONJsdUbDJEUdJiv8x5pa1MGgbXUdWexYg74p9p7U7xTO
MtVrRv+sPGAqJgbeBKli6lqTFYDIk5/3CjzEijO2YEWmlTupNWklTKGj0ShNUck6
HA/a0Nr/VyY+Tjaig+8v1G2PJ3aM9kIj+q/apSiQufyjR4XYEzqULh2vPVa1lZCA
K5bCcAmSDPQTXa0GZW8owoSKJUwcF8xfS7+2c7OyXK5C7Nxm7KYWPsoL+16j4/V2
G86yeJmLwIaz7oSBV1nfoyeG72UeJ0Ey+SHdiED73AMbQzDex8k28BLLiJYLHjID
CBOYEkaW4EavUwOLooQj57q+IbNlV6he1wRhcGzRauTQkHm7BHBVHOxOzbSbZFEm
2Ug/w6tG5SACexgyWm5yS2poDLVZMDkOHHohbm1IZH+Ik1QF+t3gEpsjxWz8rO5V
oQBZedZAAiZ6htzBVLTpIEymOo0rwubOh5axXPNYM62PImcwtwKn1UHJWh+ghdrF
8xSoupxdlXy316A6QWv+XEmAjl7uhJzxcKNco03ayYkCNwQTAQgAIQIbLwIeAQIX
gAUCV2a8BgULCQgHAwUVCgkICwUWAgMBAAAKCRCs4fM8uTO7u3xvD/42efguPwDu
bEV8W4rsvTUIqfduUhofOmYySIZCLr5N9go+bbkS5K0PrbFNxkmrkLBZf6zNwVIA
2ch7HfSXhTLnCLhJt1UJkNacfij/4hmRvJDYJwsak24zBcryQAnglESA9j1v+t1v
8ZH7GZFVbkoIDjt66bAY0qdSl+QtyJkav1tQhWRYuKRAc7n53oTruj7kdp6F/FWO
Ev5OILM+w3ZZBXs47CaHuBZjGiSUecywHzLxPNunPwUA1n1gwBpKVueSDTm3gqx+
BcGmziyUriinYKdVhWQeINpWsewBcGMwHYqHzHJ4aLZL2+dk7aKwEliRiPqd16Sj
hMuSWoQV1GR4XL/opNxUHFA3qBAtCAHgqgeSx1SUz77kDvUSSQt11vVr1D0ZOgEM
RjxKYYn/m0DOj7W713JBeMmLTZUjpi+QZ3difxpjIOeZIjk025IdEWGgETHOv4Ri
m/94Gy6z0S4lR2/H9EQwWuJYLzqSkYhULQ1oazqchD0HSSycBAshOMKD7cNDlEVD
VczyYuUbpveioFZcTA+JplOjsZ3pmtDHLi7DFmL2l5yOb3hpJpuE42rf+dVljBJs
8jB0AXPtfSkBcfztdxrpPW3DeJ5/24UX5sG/sz8gi1RU3B3vAz+DQ4KmOS5pjat1
TW5FcgFgtp+RnTuEW+ZKRmrhpLTnYF8YDrkCDQRQQoVgARAAu3c5+R41PDKWNL0n
Q8bH5egvxgjYDv10Av547/Gbsgqi7VAOkyJA+mizqL/jthS9Ja97MnhOn3sEJjdV
1LLN+GEHqbn+gxm0iEuxWmRHRheZfv7v37Nc6KA8yqu1KDrRum5pi607ijciH3cd
VDpTFfcsv/f6QimdP0w4/Lm+n07r2484xBt+s8xQoEk5MnIG5+vgZAktXEgnE4qi
2zPVIYPXLq20NkHypnUC9s5BRGEjDMWWM1Omw/kPqe7DOAoyJxfwHtd6lo+YmBY3
1ogbAYWzKkA0SFIX7l5IOEc8m8NAWPSKNnA455b9CstIGRAwzKkY00wPiwuBWvHB
GHi7l9hSLwhEeFFgB/PAVIat69S/X1GEBr7dMKWFRFTMCLvGfMHuVfmcXcgt7T7D
tMB+VcTDqlAU1U/hnyU5M1RfOAWH11L9LiYnxIQenR0xBRpLt99uhCz6sc7P7OJ8
FM6kBp2dVBGTv4eNAj+mIn2i8l+eQXN1nS3p339Y8i5oh9cOn++enskmS0KGRKUS
UfO7ofde4Q+A7o5HG0vr8YcsbwKZ5OLvpjDgYURpRnbp+fqR7aDlrAIfO/HunWAw
ZyIxRdFVZvoVaJ1edB835w9c/ybit4EnLY8sIUrb3NAaeG1m+GRZ7/BZ4zNTiJnE
5grCE2goRNOnk9pxVz5OP8Mm3FsAEQEAAYkEPgQYAQgACQUCUEKFYAIbLgIpCRCs
4fM8uTO7u8FdIAQZAQgABgUCUEKFYAAKCRDc4xDnhkzIvyDRD/9VznZc6c7+9Pbs
odGWjTq/tgE2+6KKTPv+xaOwLqRTDZdW+JXu2w5PdIWEfrGHMJJf7MobBEvqGx1p
8OXCZAWqBfc5ZfhVbZThYaMkgZrPzRfaapM7KlLHU/78IRHyztDwPs/WMpYVvMPU
QZwpaQVDLLsN6My8Jfch4Un1rBVjrfOl7O/ErTTMx0okWx5XtvKTQ6ww8XdyOVNz
F1Wmax8yrEgmnCTwqWyhMhoPBkMPK75B5ITWyyQkP9fFplgTi7te8xutdg7aA/iG
kgeHOvPTahUo6BYoyv1CwM0sjyolBzEG6dBbsCHWzNDEZRuIDhxW87UsQ6Ys5dRk
GsruE9ouxZiUzG1RS+3qzXA9yQH5R2oHe0qM0Iv9+VlRs85gNSQTAh9EA32q+Ctp
+YlXcqGRE0x4TDf2p2glS9ktB/2JcJdxGvW56QA7xJxbi7Bdn6kQzaQjLGsWGHOf
fGLmbMczGQTvg/V1gpOlq2ozA9NV1CjGHCOvA2yqar3NsYbrVyXsf/Rax0rmPbHs
SGZpcAQeNUaG3MButsS80YCxawAoB7X4CrxyaOnsQ/XX/sffWpGprIhJLszq7G3p
5eDDn3BwQycuN9fqs//P2Blciz5M2peW/CxoAi+V9VYKqwsjzCBfMXoBBh2NHMxL
4SG0YkNC9TOpuaNnsQpvK2quSNYLrtamD/9N65AcXa4uQceuIHbg/WbDWtUcAeSC
buJ1SL8d3fwjLTtIbOMmXt6rWHjXGey0nVfqU1yXNOC3FW4gsYEKD91YNPCHpKTO
e5m3rOsiJ2ahG/qx6S+XnKcDqX2UIdKOff3xfUioanZzK6AaG/2yEHB5K3IPZ8x0
crpuKAk8shpaNT2d5/qj0YBA6U/w6k5JKPd0FMiaZnU3MFiT2kxBG4WpM81+KHHg
Z5D55JrsbkgJejfBiJwDlycgWLC3ePeFs0VOUOmusV8eh/QMcAMJZJYFCdI6jlPe
ncHayGL7U0wRTWE3gCm/3lx8xgpXs+EOvXpaDK16RYefSFBOTiUjOSCqRPQyXxC+
Uswbi/xF9gW/1t37vIdUTIrBwxmY1Oq52lzcN5c+yXWjZAn7gCLpjRmANx1A/poc
SYESa/K9vuNH8CmlEkUDRJ8keIDoHK7C4ZQVY2UKL0w9RPuzeF79L4MFTxHRA9Dl
Xe+kkNkV3YOx5skq5knM5eN9ETVRRAd5NN1HcihlbIQ/BASPpmNMSypZpnlE648G
TGk+9OIhF825BqFX3u2Tl3jXUfm26Psrk/n9ZFwaqasxr7itT1QflDrMKWBSpcBP
huKFhY0BJpvZGIF6IUzLwETD8MlPKAPl6XjmELM3whAiF0x1cHW+y3wf+h8GUZ2n
HtadvYUpqs1yog==
=ckJF
-----END PGP PUBLIC KEY BLOCK-----
</pre>
</body>
</html>