-----BEGIN PGP PUBLIC KEY BLOCK-----
Comment: A955 3620 4A3B B489 7152  3128 2A98 E77E B6F2 4CA8
Comment: Nicholas Wilson <nicholas@nicholaswilson.me.uk>
Comment: Nicholas Wilson <niwilson@microsoft.com>

xsFNBGdRgdUBEACm0zhfi7UakL9+OJjzjxRq9ynlOrY7bSTkgMls8Xd9Qt82F1UB
heHR86Ow4QBnyCbdqOFRBGFG08F6ovSrzjikMzowpy3qSVfjbptR/h/Lqf8XCkRo
rOrW3AYTBVg4Y8hmCyK92mtNrMJKYiZEcGgTjTnQCNy/1pwBp/JQs5e6/rc+GMcK
ruBuNXJzsQP+nFO9GlmKOhVyE4tzwEFmrQha9KvpCdgSzxz+mtjLGPHISLKIoPb/
vWYyiHYNEhn26bSnyySSRc4gyrFBVehsEAhgQEDHwjzqyWmJLJonKHI66ezwADYI
45MJ3UUtezoLdHiTDKeB8h6jgIOg/hQSz3PwTHuxKXxxRLz1bpKfb+g4uRtMfPHJ
/EYQAeNdY/ThBoEmBIP/yJSUZOzVrRzeIF1hAwc3dJ3JzmaoyZ1YBZhGW1vYCwHK
poKZFgDotvVqze/V2PWEoiARUfikPHDmNa6thNJQrGcRMbiacHbS96qZXZ7sNihr
MjcYoR7FjucYC/2SH53DKm6E9EJjHIT9fAIYtkjBPcP1NCC8OL/4/qJ1NDMV8x+j
liwHjQFVB/pBUFgw5DwLu8Fzy9OKujB8Bl/W4jnAVCvJbJZkRPkSpgKLg0TcxveA
dQ59R9Po0r36WelDg1Md4hswJmt1xHMHyLtpW0SSiKaiTx2vDVJOMXJvAwARAQAB
zS9OaWNob2xhcyBXaWxzb24gPG5pY2hvbGFzQG5pY2hvbGFzd2lsc29uLm1lLnVr
PsLBlAQTAQgAPgULCQgHAgIiAgYVCgkICwIEFgIDAQIeBwIXgAIZARYhBKlVNiBK
O7SJcVIxKCqY53628kyoBQJnU165AhsBAAoJECqY53628kyoc5wP/1fBfx1s6Nvh
FZ8jiS5gzaFbRzBV07OUgt4DXRMnM8JbWMna6NhDuOGbbVOgGwr9R1zdU7Gkh/RE
Ia0YrxYfMWn5rWk3ZgziAJpNw8CvDtLvNDLUcEv3lX8xRXPY/9wf7z6l6n0RAVgJ
kOGeK5GyORKWM6LCGdXmgGwCk60jZ4vrOn+Ywg4TYHeoqrc6rYfOsna6qOxBuq1s
9VbUxwFrxpmaQmUNMVwU5HWo07bZzhPKPvdor3D7DbgPExs17z6xBo22VkBO/gK9
V3EpoI70uJEuC9sLEZPnNCmhLSeV135uwsPgbdeeLgf1+WOnoKKGANy56F87DbdA
m5L5/lGQH6rsvLWNYp8LZxxKIps/cz19WRlKY8VZv0v+TzMK2Lpb2bhejHP+uap1
6CA9Z/kXm0B/qBOmYmtQ16eDnrwza0acFuyV+zVNoH3yNOhmaQ8PWfijh4i8fsnN
D0oOla8o/KtY0XEhq3ekrrmdqlxA3b1mv6G0wPrLTOjxukUWyHJjH9Q6N3pfO3X/
WyUq0kYP7k3SyHqtzVdecf/eRBf/GbwojcaSKW6LozKQGPLTVxleetkswSkITBkp
AAFR1scqCPtHnTLpl22RsUQ87FvIzwPpAeceUmlHTbsg5DCnkVjMXRn17EXT7VKI
lsW2zY0mq+neYypAmOUMpvvluCGCmXpNwsGUBBMBCAA+AhsDBQsJCAcCAiICBhUK
CQgLAgQWAgMBAh4HAheAFiEEqVU2IEo7tIlxUjEoKpjnfrbyTKgFAmdRgiMCGQEA
CgkQKpjnfrbyTKh5gg//eZcZCaHP+NxYosMVZlhOSwsdZqHPyYmWikfUJM7RPiFh
BCqdbPSKETM2xfFZmyK3D3GIRpWPzhfAChEzvWpq2UTM6QI/HmFrqQ7Ku+jTDYnJ
pkwvq2F59zgBAkTCydj98+29BGa5BT0D4ZLaxXhQa6ZF2BxVzxUby3Y9b4UnETmK
Au9w3PpDIaRuBTnTbPIQiH1J+wFDV0eehAPyK9GVCZoW72Ka5hOAvqgKsdzgJ4Hu
FkmsQLp3e0fILsPUEKWwlzh/jIS9jYs+Vl98kweQ+arpptVqkB1slo8zsi24UF+q
wFp/70rgkZ60Jf9OsupQRAsQPvInRNa0+Fd//aojKFzDvAfyTHMH4ellKvfCaxfH
ppIpyXK7Oklm0SoT+D5tUuhLbJdwdYmeILeuZzFs2TnONGuFqY/TBenfKLQJKPlG
4FGqJcwZeEhheuiDktHGVDOUwtFIuqICJvBLX/BwDtv/QkuD+91+AFls9kZROODr
ryGHUTQ9lCProGnmEkw8GhTRWxixS+xKf7ddm5LQDpJTKVQS5s9Vv3j2rubhLdzS
RCFd9yFZp3rGnRszHuPfHSHJXuEu3mk7X08nLjOqso0AWxXjuFuatvvaDaL+iDEJ
/4O+v52y5O+mj+BcPf4oX5VTI6VtFbluxMnAfw+SVYtZs0/6/xGr4tlScrqRE3LN
KE5pY2hvbGFzIFdpbHNvbiA8bml3aWxzb25AbWljcm9zb2Z0LmNvbT7CwZEEEwEI
ADsWIQSpVTYgSju0iXFSMSgqmOd+tvJMqAUCZ1GCGQIbAwULCQgHAgIiAgYVCgkI
CwIEFgIDAQIeBwIXgAAKCRAqmOd+tvJMqG7xD/0dQMdwDOasrXoo7828nVNH9fAK
7/9BkJhqCeO4rcvt/HEhhDsGgsiPYvJUyiFP8RXKIomZV2bubVxRUN+DvD9QZvKC
RCT3EzPbyyIFxS0jQ2w5v7FVOlQ6a/PgMTBCgxaoCEJr1jyNszEWzAVSlnik4rgf
8vVUv0nu8lXr5SKBngXVjXmVkBUNVd1kNuQLGrGmutKnxxlF6ljHSHBrpI0jYGCD
tEK9ibDhsk23dgIIVP1A0Brzogp247bo6mKa/EFhcwi9HcQeFjVDNMObRNOslcvZ
8XQZX2+hsTPSnyWkVbqbQaejvIqiI6XC3aZLXNNI+KJWML8306xkC76VhOWAdmrm
7l25T/4DaVeqYedf0HAo7c13/LGytYNp/Dzt8JMjhkIdKWd164T1DbO65p33cDsH
1JauoFsoJ5HRT9DpX0XFnxV0hoJtoPkqYoDt7+zaCH5GzhtC8hCUnIl2kwOA2uMP
BU7Gdl0yxEKYRhcIeJ92IoHuAS8KU/xnfm5GjVFNn2YHUp0DW5gJyXSANaonZ0st
KNkOZ4v/hqCCxBr3Kth8jDnGvexBF1nGycTWs9t8Ikcto/zchti7zHoM/LX4Ll5U
1YkBIrhiyG26Dh2evmDe+aFmvQRE/OThsZmnrsIi2Nuqy+T8XGkm2AFDGJgRvcbh
2eVCpgqoQDNOV2D4sc7BTQRnUYHVARAAss5DdBmUjGlb1DGU1wB0DYZa/IQQYkXO
vB9kYpZ+Vl/45tF05OmS3fVNdMkErQM8ee4YLhKJ9gtRn2s7lB4YXkq0nITSA2zK
LZVoPoYvteclCAEUX0Txls6YtAPIRUVYqPyfJWPaYyC+L3ildAku5jiufBkCrCPK
ERoy92kK2O7Yh4McucAptHdVFXOq4iqp0U+OssOCxNTmdvu7C3t4DiX9h0qiUTIg
B8zhlZ9o/wLjOI/wu5/4jcKspSpg6U1qy7CUdoGNJu0nLuqXMGv8RoTm+jQjoHlI
pVk3zST7LMCPYXkbnAqawP69w7RcVkRqRPly/Qy2mFK9vvmvi7ZECHMvkjxBiTpJ
B3m0Og1ppMHrzFq/uy+rckjfACpSo1PN4kt7vXmacpYkE6yXR8XnKI2gHMvqoWe1
5Fzn8GWdntnUCdwOjLJ4w+vDBUuoqiyjsZSwGRgCoU+LkHiSQZrqtDu7XX4U9rn/
J5Ek4Ih72d4j/DCg/QWQqn13XaySOvCt50OdNwrJYzIWB24v7KNTfemjsc1k1kSc
vVRPzDK15g4i6ZWwjFcvRiERKzlUlTVhEA97jpGpQTU3brDbpOXkZhgIJFtv81ea
1qEA5XwAN5UBoL09RJrb1kZBQU07cXnSkDHP8UZrH6KKq4rw3kMwSP6sCCZxIxMO
OHiCqEZMk6cAEQEAAcLBdgQYAQgAIBYhBKlVNiBKO7SJcVIxKCqY53628kyoBQJn
UYHVAhsMAAoJECqY53628kyohfUP/3nsIMqg24UBk6mmrx+KEEM0fGKgsSjn/8Ii
azcP/XEPxJ1t5uSH7XC+Q6z5Mc+mthF6Yvwj9XfzsOxuHPxaHSaaD83AiRUEnmVz
DtEkIJCWkBOOEvblh3GDFXbRVNdisgKmoPKMaELk8AV6stk16Ft1Jyw8Gpjcx1kC
VJxyTiJyhiajAckZ//IYGvCt6l04/y3/CBf4ZSzG15ZXQl7NrbIp5hWILcbxlP5Z
68Tg5KhH/uMEBCY5ddYNwox8ddoGrG1hgpIVeAkMsNrmQqvjaHVfzFPjlQAYkfU+
b9p0UrOcJqEVaY3bZCvTR8p3NyileLp2deFMOsPZfGArliRU+mCGAqbeSFHSCF/D
CFHX33KyBPVktYYF9b3rW/Gp18SczpaW5meqYZTy30NT03Gl8s1aV60uut/XIdlM
e4Oc9XPf9+DebXnR38GdZH/kcCjypUyn50i7RdwiqUnztZ2zpc9IOM3U6V45uLlK
ZJDWozoMeJXjG1FmCOGpKkbRSZnQSmZGwti3w8CB2mGsANDs4D/Unhx3vt5ULp9b
ZcsTtB1e1cPdrv0qnbdH2eDpvGnJr+kWkn6bnNR03kOELvWDLMgtzg8mQ40KXRHJ
hWgnJmqbSmP1nJr3Jhe/Po4on3XRAo+SToj9uZ6jVKmrSFdXt5TZRuXv0abacOR0
4I7nrI0XzsFNBGivLT0BEAC3jzW+2FGUr4bd7dkwV+atCDqLXOHqvvAHjAgvTWH3
dPby7xu35jVrMYL8EBbpYkkuGM+w5uwSLzl7N4cg/YVOEWeJBPFMHWppMxkX9YIZ
mLJhQBq8A4gae/m7kmgTUtpItLAmLx7IQhFs0IQwedBVBC9+UI7aOlfS+IdMXcVw
s6N1XyrGRr+byXdkSgBCdQYINrFRFIFi+c37+7PZu+yhuPT7BXoS5Qzh1sNijyMr
viB4baLLQezgBL03djvS0Q67Niqv4D7nsXqr+TecyXwje2S2A3mvWYMLLhkg54/d
hAdT0CXCPRWfhkLrS2pe22xiZpSVg5FWVUgHwWK7qrpr8/FUxUuxKnnVSV+MWrha
hr8cW+sBZ6HIr4lhNy+uUhuH5OfTLFn3cvy/mdm1xACi6XwVE+Z0hOF4JnYzMqbw
7HQLHW+FkVKbMd5aEW/A5iZrj06QUMpwyMcxyD8sNu3QuKtiI2ocYF/ouXmex0ui
aIJ8ItTwapf6vqDJgAAiNn170PExKEssZTLD7WFWgABt4T0luPRW8yTSZBCSCHfM
8vHw8MKzMknq2y7ed5pbkPJ1przH2x61ZtN4MecmX7FeyGjXKLfsQFedB0DcD0X+
8KYL3XuCBa63r+A4ePcykTTiVmBszMZY2MLcc4InR42OoMg47Fnrv4m+AxRHFNJB
hwARAQABwsOsBBgBCAAgFiEEqVU2IEo7tIlxUjEoKpjnfrbyTKgFAmivLT0CGwIC
QAkQKpjnfrbyTKjBdCAEGQEIAB0WIQS+pb1ATucjQmEwMhqhm51ri2WV1AUCaK8t
PQAKCRChm51ri2WV1DcNEACGB3Tgq1erKr0WZwO5hYJcPqjeLU0sUjpqW/9Zy02/
aYlt/LEENBCRngz8GJkxEpcf8YW8Nqzg7IA+lK2WcE5GaJAUKugpvZrTvMxhgGTA
FD7eLkWQ7pl0e5xI41e1POgrmY0EcaHTygzgaLMk5o6uWV+CQmIl7TnfRT5eM/Ot
L7lYuMat2RPhoTkW3VjHjB0JD1ts03OP7L6XUdVNy3xztSBhNJQ7uMZ5HJSQDF0c
4AxSs01B1lcV7B9j4hzDKD0eiivpFh5pr89NhbCkTi0zkk0huZXVYDU0lm4XmveB
3HNiDwQw/J1gAK1+dg7WjXGB1djeGInbqk6U27uLV9Av2PyeAq3PE4WodD5qF9lc
A9Aj+XG/4qGmdfEhleYKE7gf6+Zh2qlRKDyDJ0S5Y+lXfGiu6EHh4dmFN5uFMi3q
uQFn+aUTqZWQ73qDPMmLnn427vzaaeHG92tyd25W1oi2XFNAJBxIzq7lHVt3ehDc
mkT4wEFY0rrNhmKMcA3REVMtV6b3y5uUbYTlddorgQAqdyhF+2V/v1I1w+1EsENz
eJW01/neA6uxGZIX7Pt6m4M9BXbPsMleQ4ST5L7eCYYPQjlxMPZVnzjR8Nctd84F
NIoMws3kpgPcuDsz+h1m4el2o091HOfpW0xbq6ZwUFVAw8mCuWtjrK0+bZEYdZIP
O5x6D/473n9ZnRv7JX7r0whJjAf656efr/xjbE/k4Xif+ABgldzT/7uVlgenEr+S
YAp7t5UHwj+P5OJscBI8g8H/ZaNOW/gtz4ta0CZ4I0D5MqmW8ps+SCyWLyBP3Vh9
+kpHxktE33WV6qDAFFcLZ6sOdGYVf5SFddBKr6zaY7Wo2H9wpoi8HgymELqUIigA
tlVXSiD35DEiUZukq+b75+ePYyeM0xfdkcNdO/RhhQ9g0T6LE6KyMvD+HAOgfm5s
fIKgOEIk8TQsSgrOIyUr67/0DR9lLrKVXQEDoMt77jKLTOQwEoBKJS9b7gFK5+Zv
6Wq7GZb3QO2bFm7f96ZIFdx6opNLR9iiZESVvdiX1bnxnnVqvq2waMmYrLBy7L7D
c5/+7XeoeqPDK09Rnfwqz7W6FQUF3f1rBhOdsnGRZQ/g60inYlTVoNg+0cHo97L+
W20t1xEXIlXgOTpha/DSb1RP/pXHdfzfbGOxertC4wqhrHNgQvdsYJx3+xoFec69
26Vyay16RW0lkkwhnXHEG/v2bNo3lLt4iA1aJuka7f1zfkFtHAoLTedr66t32qAe
EtWrBty+BtrYX80iNon7d9CU4831CH51dc89+Nhpx5Qqnf4HnJ8fdz2LgAA3pCit
kYJ5KX3hXz9ovbNy8pBV4rh+YA/raLcO5QA8kXzoq7uyUvvn6c7BTQRnU2AYARAA
1iH/gKMXDXf1nXRPIKSV5j8YVisso0SqMKMLorYwlbAkivoi0PnzXm3g7s16rZc9
T11IEKN4lf04lglN6lyNgu5G8DFTC0lMHlIgO+QhEmscJUvI67Q+edpq9IlHT8i5
EnPLmA7xqSDV1eFYFvhi4jtUzsXksduWE4K3tjBuZzn74Q/qogmdhOUZD4jFOeZg
KpdmqmZPi8niG8vgUnL5nTU3f6oCPgS2pQM4ZOvQQ0463nXWW1+Kwf71ygcvIkZn
+IEzGcBnrG2KC2N5r+BRfPlXWXr/0YFaaggbEolmtWI/GJWVUMUU7PXV6fgXXKK+
wMZmBEH9FMwKsIoVg3IiG2kugZ0AeDWD70nvkPdHyTmgwY73q/TOFT9LHojvOFhV
kGfXdFMC50yAiAMvAM0HsROWkLHdwYrX0hJ9xNeVhO1lsAmHs9tUaO26pCsNPYyN
w9cVlY3aA/KnUygMuFRztYYwtvQUWYga8lZo0LbZ9KL1xh8wo7sqbYwJwJJ3HsPx
gVdj+9my/MAsr57Ga7/JDpFlATomdFVzYhKUguW9K5hS/rS9DThmJ+t+Vm1GfwlN
F19LJqZFhaNt02h0Ng1uYzBkkDEBPl93Iy8ddN2gUfC35NXNKuwN6hnZjNsMTQ+Q
IHtZNvhoIfWn53Vt34kSDSOT6YnypNEUO1DGkLe1BTkAEQEAAcLDrAQYAQgAIBYh
BKlVNiBKO7SJcVIxKCqY53628kyoBQJnU2AYAhsCAkAJECqY53628kyowXQgBBkB
CAAdFiEEus9x8QQE1XYcCdOSAh3kC/tjtAYFAmdTYBgACgkQAh3kC/tjtAacXxAA
nOiIMf+Ta64fw1E2MFh5pd4D7MZkwbZQy7qyrbOR/eac8xwI+zVl7CSv+zQ0a3Kf
m9b9U0YYlXN/4aSAKIAJlmXMSPK/mmHlNZilWxwhkWsynsJo+anAf3V9STcTlUdY
Mez5F8tmASzggOFqErr1+7UoKG3z/0n7YmsVKUBkZYQTAVcjmOWnWWcZKSDSAflD
PFYoxealqMj3DlgXqDPQaJLHTvIbjWfcgHaoXiYPZWZLZir18cwWb/IEdENPCfrq
jWsq830ALZzSoM6Rs9c4d+GPFJIMibUcDAsgZ/m92XLFk2eFu2s7luGrk8yomL/j
aCL3QrniUtgGm8OCVks7WztK0ph+Lhi1REY9xcoFk9xJo+8LNJmYMXjRR/M9dfFo
gr4UbZortav92qaToHEGOhQ3h+5xBzWhL7gp3NkyCnBCMGKP7HciTsIk/3k644v9
pQqpzAomRwCukOGKx45HJQr6cyABFIdE7y3tRBwgTJTEPivuUjDDF/wKNe7NhZEK
Uo461oi4djL8ATf0YGNqF5friIcY7IrrbgrRbVcV1HBab7DMOmNIB7/B38I3JT/3
xkEgFm8P8PVbBPkI2zDP6Qaew3rMM9Cd99jM97paGCW9jkHLuOIp1JArKDX2rUFc
JlbuSnpZGypT8ZkiIMW160Ju5PUCkONnLGnzMoOAO4WsGg//Z2LFmaf4mRUlq+50
if05Zf6h8Q5Dgy5XR4pnOnVZJXIB6sbLdJLAnsuok6ZidiIA7pFpA2EjYGMLqM0Z
RBXGmzzMzQ3CjL6mc1HaZKYqm5JSXF0Q6RjDyIkawxoxZUUq/ZOhuaBuuJ75Ytj9
tD7ZBSKBofx+oX/97ymGQomFSH+7o4dnu/PkE8U9FvFXlL7mYho4HnqJnfLdxCbb
luMeb+aagnaL5XP7igZKqoifKBHRos8/u6XHP0z7MVkztpvax6KmK9+kowjOpBA1
1VEbUIyVVvg0SQ2/rRBKmmgy9820FXYCZdmmr6Do07yBIs7eEjHF8E14TFHlReXv
vKJeYMb4LVchcnwXvzZ45a2FiVpU/KYTkkPJlDKKRpIL/y5Z6zX4ue/KuY+NyzyQ
FUPqAEfb+Ycu6wPIx6sRpJrsHYfAOH8PlIup4PvqYyDPzzrkLNWuu9VfDLM8lcHP
c7a26IDifqSOqaxqBF9VnH6e8eWQEhnq9HOr17kDMxmeX0R4nX56AyqrOabtMvEl
nyw/hMGQGbTmm+ric2Bd79feBvGQZAhJ7shIfWEdtSrgVek9svBFPVXSIkk90Duf
WLN5vdF+7uuIKzoU+sPaPvFNDR1zquBZaEGFQoszE1u28+OCAtiJenRmihTnpp+w
VxeW8UNwmZxg6OZUQF6oYipFNyU=
=z9HG
-----END PGP PUBLIC KEY BLOCK-----
