-----BEGIN PGP PUBLIC KEY BLOCK-----

mQINBFCXIGYBEADjtahMDYeKpR3aovhSymGabaQFtQMb4idCCZBXcm/QL6QbdCtl
RGF3FoTeYPxk7wmcAqpA3JV2Hkc0tB+pWOaDJTJFEasNuUlIzcaFnr2VqsLRLiTP
LWNlnSLbUb8EtyUyaj5qkZY2e0LAUrNXGspNEqTOJUE3j8KXLpxXadjmDKDD4Z8o
P2X1Qxb2VnNmJ6/T4lpCdTKpQE8gG8qpq2oQXuqoiezO6pudohimvVsKUTXcumlk
bLgbvnFsb0cMyUCqYuV1XHAGgcyhnolnf4LqLSrh0pxQYo79JUehYBnbRzaEUNwx
fBuOFsmghkM6IXlEgOy1mWgf2K2f3dsLO0uAtb0Txtw0eztX5r+KLIiJUuSOh19J
ygFG/fppUGoc2YGq1iSdSGtZfpBS4ntDDZGL+hOb0ZMN4QCooV5PELm0Wx2/onCS
tteyDH9nU/yvJ9pCsn5flR3jJCNC35AoxJnONZ0KKcVzzdcMG9uCf+PzH1gJi2f/
Y1yPr8a5kNltKL2jVs5Nut8R8i2UngjipMTWFFP+eJlJm3aQl9EbL31G9j0GnR4Y
TZFk+MuTSqmZ4ZAzimT7ffDCIZQymrYyGGpJjdJP6bh/KcAZtrAdcj77CKlz0A+Q
aaJ9hCtERjy2DSn+UqAGdcln7fdaMJ9TrqqAa03wO/QIU5MgJpH14HdHQQARAQAB
tCtHdWlsaGVtIE1vdWxpbiA8Z3VpbGhlbS5tb3VsaW5AY2hhbG1lcnMuc2U+iQIf
BDABCgAJBQJXfnC6Ah0gAAoJEDknjagQnmJEUHsP/ji4YZBthrHBaj2Z/OmRLZPc
RWnA/NNqy4QcHgTimuk/ZRiMk/d/SLXwr6tVhF4eqnws5dVC+DYcyysQ4ehK92G5
mrnqCVdbJOyUIA5AZNz8BsWP8rYLvY+HOhpLo6rmEzgBbqKUxIZsQ9Guv9izugyG
4u/R2VVg5mlwAt4M7hzixcr9cmcA4mAJsc8P4yLD4lIpnMx9AqY16dj283rTObWK
lAMHC31n3eHwUP6SuH9BBhGJVC0h9iGArDz/F15UlsvnUBic+RITst3qrisgMBJT
/0E3U83W92Fp1MEIp3QLFkd8rvffapF1jXAoMeyh7S5VLZLWlQ0Ue2rQU8ruSQk2
TlOs9pJPX+XDAXWtpnF/AxVUe9md869uzR36sSroxGqON8fFiuSxcXowtK5511Gj
4qkY7oWU8je9Gd8MCLRZJ0Q1YDN8RrPcr9m6h1pPPDLfkODfDEbAfENj9vXVdHAE
eOf/9nWEGHD7ZHDuIgVJgyKSkxVJmo0MM5xcnZRdPj1/1zdILvFfPVSomq2/GBLk
d7UPuk1Q/Sas6wROyThbdyXXlnW2VvqKJaSsr1lIshYHE5lJanljFWEwuyxswDNb
duXIpnMCfXYCbdqnjQ9vQokEDhxQcpX8aPcmdI/0IOvSRN6uUkp4iBrBFJz7zgek
cc9z/FXFvAUfLN8U3sL5tCtHdWlsaGVtIE1vdWxpbiA8Z3VpbGhlbS5tb3VsaW5A
ZnJpcG9zdC5vcmc+iQJRBDABCgA7BQJWbHsCNB0AU3Vic3VtZWQgYnkgIkd1aWxo
ZW0gTW91bGluIDxndWlsaGVtQGZyaXBvc3Qub3JnPiIACgkQOSeNqBCeYkRIXRAA
t97hH4c/4vxJxPiaweOFzpuqUmRyRpg7gCfuY1R7sgQyhGKtgRPbbrH0W1zo8Y8h
pQ9OD7ET+3ZzwnHdr3b3+Qd4MTZVGqfwA1ggKmEMoX9b4Ou+LD98p3oZdRXmiRCf
1wFOEa8lVZgYAAONcyawtfWUdFK44vVds7CPX1MaQv6OTaeA/VyYW9VmhR1gr0pY
GJnCWJkI4Kfx3vbcdOD5z8NO46VQ0ofbtWzibn3l5ghpne7gfAdmwwGeUFHSC9Lb
zmVJbHiPgVQYVYr8xiS0MMgm5NFS42IpQwodn3A7vaXVO/szgldGU9PmYr+9kqpk
AHHyOFKwWvWT57k/Rnwt+lRlhLQsmBHTN+WoRmSWha6w6a/VNZer0wN0t9EuwR7n
yyPaLCYQjFdBfbI+LLsnT0ve8NwsmXaX/o7PpTTEQTJz2M39B1dywwpZyu2QJjiK
ZQcO6XMGg+26wipihxwc9OTGgQ1GYRa1xOnuJm2GFjwjFSlsVb9X3ZRaxXDztnoy
RiLBLGB5W0vFg93yp0wBhBjd6EVK2g0mclHTc9b4JnAawinUSe0vQrWG4LzKrbc3
it9SRXnoQNCMNRZ4QZubBjmSdgXVIxYPV5+1cOGzwd66qs8nsyAcrxn4+ZwKw6OX
jvaBo2d/q6cYBJtJnjuZcwfflqYucgrAjXDgTQahRsq0LEd1aWxoZW0gTW91bGlu
IDxndWlsaGVtLm1vdWxpbkBlbnMtbHlvbi5vcmc+iQJUBBMBCgA+AhsBBQsJCAcD
BRUKCQgLBRYCAwEAAh4BAheAFiEEdCDfhrzhWkWNzpl2OSeNqBCeYkQFAmhmK3MF
CRyAEY0ACgkQOSeNqBCeYkTNIRAArmn/cFWbz8XiCbHga7b7S65UBY65gbTeXHrj
TvfxTFCGt13dR0lKeCpyx2LK3iJ0YvgPDFIVJkyoJWMpVjHgaviHmYfOE4kEGS1e
qYmfzHQcCI78xnxNJPaZV3XOKrreVhmqsTZiNcgrRvGTOF1fddXqdh9UMAHJa13Z
OHRBfJAgsWQ2e124j4Re5rlsc19Qr0EGtaaoNkD0IZn4c2CZwZwLvT0iN0XhkY1K
e6OSqvwAtaO7HgxY+CExFb+F8gCjJ3wjWLhHQbzw/UVAY7CML1OkP2UPWR4xTmG1
us4n6/wjzrw+jI1xM/qfSvpQKk1Xv3Eba2Yw7ekstHPAw4rvn01ES4O4VCYn9z/c
TGinEinr8Fpc51kkwoQuzwrZik9Vike9TrL6EZARXEP/LEKUQhnJAR4vg2ho8UEj
CH6Z7Lezy3F3eFTFHB/9Pl4wGk+2AQMPJiaKP9eBdokIhqxOgtwbCE30KNBXmBMj
QxqqdLn436yjdjOv7JfsH5GmHTWAz9NmZA7PZ5b2k6a29auEgiWt4oLdQb4g+XWN
tNQyEtDApvco/hgruEOC/2yVEFHhGr+g4ScsyHvRNYkq+BEJmGmvvdTzFTAq6l79
pLTextfTtAm4WzZ3vMEuJOSEPGnRO+M+AHT52qNOyEQ/iTJVlWd9ugGVgQklCXg7
P6ZzEjy0JEd1aWxoZW0gTW91bGluIDxndWlsaGVtQGZyaXBvc3Qub3JnPokCVAQT
AQoAPgIbAQULCQgHAwUVCgkICwUWAgMBAAIeAQIXgBYhBHQg34a84VpFjc6Zdjkn
jagQnmJEBQJoZitzBQkcgBGNAAoJEDknjagQnmJE9HMQAJkcz6eFneZ+AdIPI/nE
J+oXACNMhApNx5pxpc2mW17fRPNiQ/hUnjB89s4B1bPe/sC1De9oDueNLT+qQoI6
aBLh/Rh5WE3mmB4YP4MHa5D0z6hA1NtkkTIBEjadnrWV0qmBQNmQdEnt7Dq+5XFo
AUFhZqfqzQmth89lKe1PUxOo9ox2ossWxC+twRE4oWyEu4ZCQmuHNrmtMf774PeA
Yr/T8YSHrA0356IcCI/HzBR71TgxqgkIaRkLCPUAMhgebzno3JloXL1vyOxxxDLU
ZiJayp9FMoc32RgVIvpsJEz0E7rdGF1AMpAyM6SGqZWOC06A5L+I74lVuGBWc/QG
6dfRnrmbsUNm36o8BlFc5siLfoIuPQEyj9MsK1ROKAFDpoIqNkhng3HFfOIxD17z
1freknDw+TsHxCcTj5jPfaxeucrcXTUa8nsB/1xS8KnK7JTLhZfmtbhqqrN3Pjbg
3WInNR0TenQYgE5pke/rJSxzO+9246hnepTGmsb7fSgDOGJvgl6fW/ZoA9wURuAH
UOzcIrHi3OAzniprkZwaF/cBSZY2ENS6LhPlga6maOQ3NZo2O8MSms9CGt433qiY
drGV62vi3ikZH5Jpntw8SvQHgAOIlG4E3Mre8fjOzOM0mCvmv0QhxpmjegJjTa8t
0rKFeVCYlU9QUrB8R/K25mAHtCRHdWlsaGVtIE1vdWxpbiA8Z3VpbGhlbUBndWls
aGVtLm9yZz6JAlQEEwEKAD4CGwEFCwkIBwMFFQoJCAsFFgIDAQACHgECF4AWIQR0
IN+GvOFaRY3OmXY5J42oEJ5iRAUCaGYrdAUJHIARjQAKCRA5J42oEJ5iRGHZD/0Y
1D2hC2IBtetHuU3fzfm62G3DgZ3FC0XZeA7gnTUxwsglxCoQBiS3pg05fe33PkTV
TVY4QkVl+nbOlE3GYq9+8WjHfm8vKa1ohMSweuvQFQauXR6T7GykNxCbcgXJcouo
3Y/fvHj3q2AHsyFtWj9kFSBJ9WE2yPujVSj4V8a3rygsp4iW53BcJq8uRvQ96iaQ
3Wq4usbqbAVxl9nRAwUaHvqPgVOkmhcpcdAwUg3IpXx7Tu4yyFX6opJpxdaRR46G
RLvgncNDH8QOErAr/HaMm+hf72XJpzh0tR7aLqZGa2KviYiGLW0awaeYE4YhGeDV
brdBTAgrGya8AFAFHWneJcvawLQ0/tvNUIhPGmZygdew8oDzsKdDAnncRj3yox8K
NkxCl8MP8z+XZZaAir9+Mla6JG7mkRKRHeRM2D+JiniH5SCgili7Y1VNjJGMzknA
kkwyRUe/DVOLPLAyt9/Q0DO+fECV6BkkNhqbSl0ZwA/xxoh12Swn41PCKZ8qjTy7
HuImst9/uUNuEQImdSBBW1hKj+Gvk9y2D5jEeKoyDjR3I/2FzGA80450YZPg++3W
eNh9Z+1kBQJ6bv/ZEG8tOBtTW6aRRfUCJCfQtFog0tZGDFdFhs3cOpdfIxOpSQGd
2/b7QY4u3C5/qdy9PHKqdkOffVJh8UPr/O0rRrqKnLQOR3VpbGhlbSBNb3VsaW6J
AlcEEwEKAEECGwEFCwkIBwMFFQoJCAsFFgIDAQACHgECF4ACGQEWIQR0IN+GvOFa
RY3OmXY5J42oEJ5iRAUCaGYrcwUJHIARjQAKCRA5J42oEJ5iRGSvD/990xIOr3QA
H+FIddtHEij6yWXrTJUyFj1DuKddRrlOCsZ5p1n63hBV3AGueiPEUB1pzyXsRWOh
D9p+5wJ3AnERw7hv7VY00Kz95/7fMIFJi4SAVRV+ePWF2gDF1/7WBps8iJm/hlQj
GbtAAbpdR2gUwHlXltUaos8ec+Wljf9/zWXnobzRP/6XPIBB+TuW4L1saQnf1Xc/
bNCflmIrK+DXmjeRel+YpHy3ic2Hq04ilhSgkqR6xJz0+s4wJTH9UqjUKI3EPEjQ
xSAMJNeXCfVzQoQh8nPawbFZo99u7bQNyIMn9vnuOVZAyKBoFyzXcZqGZtLiz/jk
kvQSyBNZtC9orzqkHrO2kXDCPIjOt5KLblu4qzA41+w9jnrUWHeHS7ZFQUxMLkIg
QeOwNONRLsLDtRrMnfzqdcTOB7EYV9H3Q0ESWjk8fu7augKaiBA+FZMXiKP1hRxz
d8G+Lff7Zh9BvERIuOuZYkH4eDzkVVixzdDJvlh8NbcvlJLgll5iDhRXqqHNPnHW
5NADCbuYzxIQBw8d5AT3D7P4Arxlbk6rnOc8B3FIxDHVhGpTNYsMvSYqPT6nA0qE
4JnaiZNp1UgZ7WtXE/QSjDyEAgnk+E+fBXF63sxS/jkw73PXIkJ5+4dfEbNffSKG
fLRvgJWp3sAU2z9WTnfp067SRGn5EszSrLQoR3VpbGhlbSBNb3VsaW4gPGd1aWxo
ZW1AbGlicmVvZmZpY2Uub3JnPokCUwQTAQoAPQIbAQQLCQgHBRUKCQgLBRYCAwEA
Ah4BAheAFiEEdCDfhrzhWkWNzpl2OSeNqBCeYkQFAmhmK3QFCRyAEY0ACgkQOSeN
qBCeYkT//Q//QueKQHgYJc9XTp2Mbd3mYpnHrNjInZ8PsIIwwc5g5sWXmb4BPr82
TZHZXadG5jBAlaK8M8A7i4xIjcYmFTaHwW4IE9hE1BAONrN6hEdHtEPwwGKgw76/
3MyNqFixBHcjP39lwVKYFvAZ4uvnY+OrnaSmwNAhgtAgB6tPNaZedOiuUiEmG1h+
wRGRQxiEUFimiwllmMCz76ch0uBdHx0kmmUrd/icduDt9s772W84R51c1hIRNtk5
k5dZ2wWc4shJuH+a2N/S4IgcDVbl+XOi5On5z1kWE8I2B1wxonShr4u97kDM0Ihc
P6C1bHLtpjQgx2ts2Y2ubcj9cZkZcXbSdEv6iL1LAmEERZ/cZhzbUxWdSXddxSsT
5B05gRpPUWAwkYWGGTqxdK5WlX6Z3ypsFgQDdguM0RikML3O7bTT+NfkcFwhdwPi
mZLrHjlPzKcp7mzKiLTLIe2I0F+mXuSgANfipNQSp4XiJgY5+ds5PT8LGk+6+L9j
KJSwnRq//zxHKOQQ5omt50Qcz7/hwB34TQE9TvtuYnkwo4VAMOwoOQGMn3oIHYx3
T727HHujL5neViWYzQYcA66/agL5UaWG2WaOZeC2/eIPKC/RdjH3hxWB+6pGK3pI
9FAEbV764/hOK6bz85h/uff3zlAEdEWaCk2UmjE0tKtJVZfRCySBTxS0I0d1aWxo
ZW0gTW91bGluIDxndWlsaGVtQGRlYmlhbi5vcmc+iQJTBBMBCgA9AhsBBAsJCAcF
FQoJCAsFFgIDAQACHgECF4AWIQR0IN+GvOFaRY3OmXY5J42oEJ5iRAUCaGYrdAUJ
HIARjQAKCRA5J42oEJ5iRBtJD/0Xonchm1dQ0EAbiWTefTjyxOfFc4mm3iSi4dKS
0RlOHAKb2Jzg9DKmhpP7SaARmpMA8bY1OLPRn2U4U+AfYGKOcSbRMIRyIzNuKpxw
FYSkzjDjQeG96bR+ce8gEcGLxIe8y83bPrLBFk03/FqjUUQHa6cSCCO+K3hBo8Mo
mcUad4LO6ldhZGgaAFqYpZrBTOIDmDhYY7hn3jA++IzNCvsdkq7mlTIurRBa85/+
V0OddQCAmlMh1JTgZ9xJroQATRp76gPtQ3Zd2XYySxMzEpZ0+k2y53GssZ+61zDK
iBDlj/4D5ShesS443uhWue85VP3140ZjZxoyB5E2zUinYIcIUOmIekl1obxmT1gK
5R9CcI8tZpU01pgA/GUMIBgiSJ4fiDhTqe+eFg909ZoQJ/yP1Impshgocnp8pNg7
KcMivYU/rrsVGLEnjziEJY+7XgxJ/t564L17buzg7KqJcME065PGJOQArUIne0JR
CRdjMpLpbp+f0ppOKEjjtcNYlFGGcus7S/QYc8EbeugCbInRm8b6OfcBve1NiBox
VuUo83ZfaqT29gYMUYyosMx2j6nem9A5DiXMTDZHgeqxbE9lPOV/Ur1offUd6Rf9
L/y2ESHaTjP06UTW5TE7QURm9/L4hNjW6z4wxEKGo5CenGVTR/LaCJ9wq4RwJtGO
JRZbdrkCDQRQlyERARAAzi+R39PEKV7sLncMEvWHQTTGSUNRSD4hEOhB+PVhOUmj
DSwglgGDZ4wfjKmmmgHREIGSan6bXOXW38Iepc+XB3NuGgMZHgo55mmRJydDqFC2
HP41Cruu91mOkOyTLbyg4lM7efi24xc3BPuxV4uFsEKaHUdhRTqiETxRTXqQCooq
UeWsDZdc7uJUtdV70T7H8n/YHRtJnCue1r8QZP03Vzuav0KXB2ad4aqTAYeZz4C0
bqfJI2NYEKbZc/6ECsA1nEGf4t5M5boWgYAQELHuHPMl++mWAHGQkwlfk2MEPFRM
SU5+8O8V5H70fc5eOpEhz99AOFKnskvOssMiTi5yA0Hy9KXLFS0h95KY8afsQdc8
uTwjwcnaFz6/9EEAN8b1I9e74eXkSaSLHxyb53EsiX8nVEvYPDw0Eq2bgc/OXiR3
07JCqdPZAfRiTKt2PQyFSuvf9wHO5XFYHTEet4zU2ViQRoEWYqcohm3gGrU0OmOQ
p4AyW2QIAbHy4K1KP3GLmy7tLl5a9Vzra5EvCtxnyBzSN5Ca2vyWTzh41yf++8fq
BMoV/zvRz1nZ9MbajNXMPuf2wFLxLzDV8vB5TPmf1P5PQtkS/Tie6x57LpeS1bJl
0vs+8MdWAvnpxFX6L3lIq3r7oXnlJceO5VapMkdm9eH1adpr4Ef/zt7B2k98s5MA
EQEAAYkEWwQYAQoAJgIbAhYhBHQg34a84VpFjc6ZdjknjagQnmJEBQJoZiuQBQkc
gBD/AinBXSAEGQEIAAYFAlCXIREACgkQ05pJnDwhpVJVhhAAhoyf+ONzqGNacWB1
kWQlmuyPmraoLiGk9hY/TRr9g6g4VHqRffmaW+iqUmBKb4xiRkAZ+YEftruDudsH
yJsVyw181mkHLvPLf4wc/Ywaz+O5rY+/jO52w5T+Yx5zxVbuHnL1Z2YqINvbPWrU
a9s77/PTN1Rf0f+Ey3yNtjeIXiRu1a29zCT+xR8YVSIp+HmzKWenpB9ow6Mfvwxq
AjjxdbU9AUJkuYxXF3PZYzuK960bvck2ki3q4mFL0LAF0pHJEwvnbgfDgzJwWZz7
AVP6M9k620Z9cF6+RMXHkrMmpyWAvoOpBHRZGCPmRDnwdumqiGZcTArWcSTOy35P
i3CQYUW6nM4/Tz9nNHLmh6xqTmXpmsgX6zKE6JmVi/GO9JzZw5xQqdcSlvpnMvdk
+RJu6C0OGlZOv7AQcv1rDaAhHQ+RjfTF9ooCrfwyOiJt/T3PJQi1YQUx88jVa9GQ
3fwbuZrH9zyo4y3FWewMehU2NG1NHCgPCYvQi/TMXN/cxJfkeqLIjsoVascIquDd
pV5n7aI7bkqtuz/gqy0FpPFhcdpfytpVbCiGjy6W7OOcK2QHf+Kt3z6jCYxQd/SJ
8MRggqpc+zVvOB+l562VEZL2Vs7ULv0ClR5pgSO0w7nR3AixKk7pqFatjrjSSWde
1PU0P2d8CjZ+ZQ+5f//nv1AxfJ4JEDknjagQnmJEdAIP/RCrgeqyp6UnEHPrwJHe
DXc6IvNeQY0uhcOvWbx1f/SpqTRpR/h/6/oGX4RVq13PuX35PPRd74uPbZra7CBR
VSIMTwFQcXKd5FieZBsRec1bElr8mUl/fjIyO0Ll9q6sbzinmeCelXFfqqePsdJl
PwsKeezAbmTNJ8AwWidE0UpVtaoW+l/A3biKBGsffKFN0E3yJj78eeoS/jMe2EVC
Stt9Ion2BdFIJhWD0jUeHSXg9LZ6jbw+ex1r/Pcnan+OS80zKJ4hZTm+p5IlcHtp
wR01aMDSHnqJcrNad3RTlMqa9MPzDyHCuDJKuEvpHvUdsnoOCN8RHbrhI8gqsf45
Kd2Lag5Ar32WkQbkZ/qHbx/nudbCUsvE48ULfk4lF6v58ssAYbpxxyP9mUFURen4
toADsMsK7OpDJzeuWXn3hXxOllmG7cEkqwZHTQXT/zj/OE7Dp2XKTFcwdMFUKvUh
PUYUbCDG8oSb9qbyrs+LL1M51ZTGI2R5wwh7VOCnZMIpGkmSxreUtmoU44RDMwPQ
xVk7BBm6bMCCMJWjUj/pr4uPDjz0UaOU5WjkdMWO8P+aAyyB0+Q7USMtkSuLVKkS
syFgrt9SfaLCrj6RlAVKO6nX+mIBUoQjvUwzMsSV+Ec1f0kgH0tlOSmLLvIyJCfW
iTVqyNTTTDK8KQpDQkPYcQ8luQINBFCXIWkBEADYqxLU/iHbhzsFh0uRw4XwVhaw
mUsWSXycQp9bn+aDG9oTb/VYgQDpHEwEX3uba4qCSeOdV9Vs2aksz7xI4wNUFjrI
IpzkPJth1bu2qbUYtezgq0HMuS2w/BbnuoNbvBTKl5vEjE1/AmLyP9tMpSZjBIqP
KdxtkK0np3NOxjd00Dj+YceRKa2SZU0ueqh+VQyzfaTfupMMNuI0DpN1Q6rjr2is
HvU0qbHKTwQ6TKyHwRMXC/pMdRr6ef6WL41NAGZlzq/7fybEQW7qAx+c5fc6Q1L9
DRPXZwcAzntBz3foameDWlS2Te3dB1FH3WpuwvrzAGQr7Xpx2GXn5UWim2MUYkwX
ACH/t1baz3SrtpUwIST1x6KG5jmzoRlTuvvRVvgtzLAYZn3UPCmvJfYog7A0vVRg
f0ryBNE32ZPIevRNJT/SVDJIpt0JARzVdKpkQG8eKnH1EHngQDEnBCPYOrL3rOxN
OVqoWBy2DUkHpvhCnowND1W+t3ya/rXEzfEq3SOc34T/wcclGJdJtkTS417ix1ix
eEl7IbDqv5i3vXKpPk+O6t30Sk5QZpQu+fanlJJAjZStZJn1bbNFOx8X1r738STk
6mhqT8+8Z/4ciFG7fnH4AQW+mAZJ8Zndvz7PvVwj+GVw49utmwDzCChHgSwDl+eU
WJE6Ig01JoszE7zXHwARAQABiQI8BBgBCgAmAhsMFiEEdCDfhrzhWkWNzpl2OSeN
qBCeYkQFAmhmK5EFCRyAEKcACgkQOSeNqBCeYkS90Q//T1hHquPou3ANTKvxbwYU
gS15AVYRYdz/FLFKZdZyOCQfKSunyr6JyUhSRjb5hXwFl0aD9N8jGfMxaU60RMZ2
BpJQexWINQiWAYFpvQuvVkagfYskEZZiAYN9N2jSpiy+vA9V079wUcS5/skekqC2
oHmgCeH6YoWe95gkU5Cgsr8sO+JsvvCnIipS9rdEikY2HI4LtArmSRmzcdOW8yaG
H05gANbX6YHa480VcHPvbDWN4F4eoG0g88oiJTpCUlnx0t1f6AsekwhXxYrJVfch
BYWhjC35fM2VLE9prwM/fbUQGjTHY7FNT2XR+DRMkkWjQzqJuTBxEO62TQSPCBXB
g8ak+8XEuFOTwTMTzaHbpTLdtIchbwzkstwmlfHmf1f3/aktmpugRE3OG/wnQk3o
gPv2C8sU6dkNhvxMFoWxCnlnSioWT6ZzBYBFQ1Sjva20CYtJENifX7dNFkeIb6nR
8Fwf3EbiQiyfT1EX4yHZ9FMqoS7kZ5e/uAhrHoc0dExGRv5lavaYTtn2iEyyYqJ0
0g0dbF6Iwr5g6Vq0UmUFixASzajHlX+IaBNuF/UPyGYtekf3u1amU50V5t2qoXmR
Q+bNyeD/jrx0yC7Ns+T6qIcNQ1Af1JXe9hYseIB19YJfx8LRN2IhclFK3IZ2MO12
Lm3hlnq4eGpzy6IVnIToiUC5Ag0EUJchrwEQALOrqpCPddr8PPTdRBmSGorqwdmk
TUHPNRd36VbQJPJt0/8ZAJh6J5KZo9Bzv0nE07Iwcz5bev7iCM9dTR0UaLj7zlS+
VwFbdUmjfxie8iIlZB4l3pmKXShag9zJTYyt/0HUU3RytJoiGigsVX1O/qNSM+QW
xrPGsIg8YmRSbQ3PwOsc4udEAqL2/pZni+raf/TAS8SQbJHm2K9ebHSQ8ZBbvap0
ACKZ8ePNGYwW9BAC//ucQ6vPrDxNn7i1IOpERhHcquNQ/6qzre8VYmHok65CFLey
zCdVb/QXrk/rp4bl/ZurgjJ22WUJ97AFaKo1rgMpoKVzGXEKfSbvQ9Tb0BX+f9Ws
6GvX5bH22RbQKVpzH2I/IKhoRIUsJkPPqX90YDwLhqc188gVmfKx9SW70MwqYY9o
ms0RXMuxmdwioWYHE5wChNZQocnHb2fnwuAmoZzRj7IZzcsZvYPpT6Ld/dKWVnIM
WaZ3vsQx4yF2morULH0Yrb4wrXzK1vASDRgW9G2Im/y7woZn609r3LNA2ELioEHF
j1hQyd1wqgIRXDvs9ltM4xZusEO7McS9yF/Ywm8EjWaWznabD/OOo8ul1NzR2sKi
qojCyOgcPYp4udK0e7+4FntKEiallyuFQjbA6RGzZsnsJ28Uyb3qfQCQJyzRL+cT
dlCM92EwfgHVnJPXABEBAAGJAjwEGAEKACYCGyAWIQR0IN+GvOFaRY3OmXY5J42o
EJ5iRAUCaGYrkQUJHIAQYQAKCRA5J42oEJ5iRHiID/9Dq+P3IK29dyJppz6R4hPe
W4PiY5rsm+jUQrwKrvsFP76vTSJCea7ocV1ovsgr0n17rrGw88C0XMmhSFBxbXMw
dV4bW4ih+z56cpPz6Ak1WvP3BLgSdM+fP7dUTloFj/Wyw5S1h5oTevP1AeMTRS7s
3gVy0laZqKZ2BvZsz7Q8+T7PrdNbygW/rjfGV1RIo/TDDdT6pvTMdsfb/LbhHAai
3zUvEapg15eeIWtw+u42oOeu7OuZRZTtI7tHCg3vsvtDqE6qL7CibGh8HhszXu+1
B/hos1igQRTlVy3O+LghmnS10/Tghs0G6M+YeOyaMxMNmJk4vdzXyCFcRJ0q/PV0
RNodnDwUvQnIlu3zOHC9ZUia9RpXhwC/uWjPSl6qnfKE5Agl5AQYnUFm2SZKn2lT
uXGuZWgj1Us5IAVQo99FFoDGgfLXFzq4BrxlsjoPPAylYGFGejHZWm27LxV8q4A5
aKpT+kt8G2/Kj4tPqb7PskAXEgtpjVL60/PHuW+vtwpdds1eTyC6YUEyJrbGjzSo
dhp0nSFwMiKLLEvNWiplyDSU0rO4f/ZNEL2gNgne+0fKQTJT+49IZ+HnClD9O6dl
jQTklaqtwGIrzZl9NmoelHz0aE6c27T7PKpAq7y5nG+VNJAYw+R4r8Sgse90t2FF
2rPU97kCL/+PDJmw604EwbgzBFd+ceAWCSsGAQQB2kcPAQEHQP43gROo1fKfPOpX
g3CvCe3a3xd4AuJxSkTk0vs/+YDyiQI8BBgBCgAmAhsgFiEEdCDfhrzhWkWNzpl2
OSeNqBCeYkQFAmhmK5EFCRWYwDAACgkQOSeNqBCeYkQPKhAAqw977nl5L753Y9El
cL+abw9WknWQTqnBeV6AzyKhSJtBioea64abm8CEAkrqf3/VrQ/XYTcNo5Qv65Yx
k09xYzR6qYULOibaBVExz0nueqfYb9pCW9F6dDoxIrafdIWKCcj3eyqoh6rCW9he
f4GqnJ71T2wXwoJ9WthpnwuyoZUpzhqIArxQMjb4Aa8F2LS8puqvozOwDeRyXqHG
rFHUbuBb3WOWDkWjnS6cR5A8x9XIcHuo+EdZ2lklinfeJ2+hs3RLzIfPjNVPrUVX
8AwHKX71p/kQvsAZXP7wlqcOI29X5jKleHB96hrbpJnW4EOOhhLxdzJqEzN7LyhV
kIzD4eOVgiB0m562X2nhIRw6PY0je1rEg7DfdqZMux/j6sNL9DaSy8UAMmVdbo+N
9PVEawUJIhb6Y2O3H+PuxHkk5pj1QWDp3MPj1Vb8+4sCKDZfmSuPOcmCUCTzprA+
2v0Ev1sQ/n9IZgGqrC3vXF/3/xHX7mh3DtumxxxvXeNlZBFQdXeaRwSEgfpE/Fc5
/Fn2Yj6F80zA7IEucVQhyI982CzAFK2lZFzfR8YmPB+2Ka2OVkIpHq9ykYag4rle
JJ5uQvFCsqV9yRwxpr+xgNpKg6fuQddBlX/O06ij4YRWP0jnRPes6bAwAQgFxNHP
mez4h8qKT/cH2puHX1CPE4MlvC8=
=KjyL
-----END PGP PUBLIC KEY BLOCK-----
