-----BEGIN PGP PUBLIC KEY BLOCK-----

xsFNBGFMu5ABEACpFrPCKpfsTSl4svqi91Hsf8gGtdKwndgXqMPJNqBXEJCCwiiU
PnS68wNWae54So04zVAcXewFdM36GypUGep5bhdgvbVKaDCrhNRdAoZ0VAywgU9C
DCAa3v8eXUSrlGonk/ygjLIMnkOSjIMls4+z0FOpvsd1IcgcBDU5S6DSAF/Sb8w9
bF2yD7f5RaLN6++EJEO2Bp+8v4qCJEUGzi5QJKXHVUTGiTirx50eLIkw0HseLVOi
JoU0NRRgzK/q04+X/NuOAPnZm5K3GOJUmKmG7M2tdMhhGT7UjF3XiI0MwydGIrPU
1T1OdPBnXv6ajRYzLgIZl0GsGeFo5qFaFmRtNO7nCGi/5XtivM1WvbqXIQmsAmpm
8N/uEcPcuP+0+7s1o0JC+c4nbHlQyvUFSZVgbZQ+mSn6GXRPNfL7AeDSINXXvXDv
5vkHN+FbFggx5nWg8J5a33hxbnZoR/qTfDBQHF3mJMF3lesXibN+oLvwOVtlIffK
c4jwjLKL40644eQfbhHjCE1AXGQjUGCE5vAkCxEqWH2nQbXIedijQD/5mufaCQX3
Rl314FBfyV1b9rIHxJYRLXHT83+om7y5ncYI5sdoY7/g/Ggmi0PuuUicax/ejOx4
nNtDgDxlhCgOVm6qpmX9kyEZj0+vAodQjMrx3JKgojBdbusl4C5bWIgeRwARAQAB
zS9JbGVhbmEgRHVtaXRyZXNjdSA8aWxlYW5hZHVtaTk1QHByb3Rvbm1haWwuY29t
PsLBlAQTAQoAPhYhBPomynhL4YiSfyK5n2Vw6gEUb3NUBQJhTLuQAhsDBQkDwmcA
BQsJCAcCBhUKCQgLAgQWAgMBAh4BAheAAAoJEGVw6gEUb3NUCC4P/AiRUDzkEm8E
WdvGQ9CkUYPAOARr19w04+N+86XZU8owULTkys81Wv80Wz48Q6IA3RASjHuyNtOQ
a3TmoGsRYovIqKWQY6hIWBY7radPldSnbqXDp0mbwxSFVsCV2m2YqZKQpnKTR7b5
N6KgKKDXDLK0ES5CO1DAdvTg33WOonSNVpP+14R1bg9L685nOckK+TP1kQq91W+0
QUeEfS7BqdU/Znv39sVVMUkXQiWK441rQ1wcHvD32iiSoqnFQxtrdTwaglpv1/Y6
MDsnnwrLX3Bsq0vIL8CYVwVqy309/rtq3tpL1dw9lWaEA0sBNBMfOvBBJ1GOUpnE
f6k6dlhHSoDDndbODXBEAgXnbz6JKqPA+NAJfnccnvcb7G2KnWtvG/GbWQia7S1Q
lRi18GTDfX143uApm++/bFkGy/m3UjocGxyx9xh/wpzKuTlqBvxAX/cSR7hw3imC
5t2t6fmgIL9ZTED5FEyEgM1+zi/OfrPyqxKs/Qo8ZxoqMuZMHN4n9pJCtOvLT72H
PUNxfRKiqjTj9hgQUm+sc8vfYXGapLY7Ybi4VrNPtGUxH/iSRf29sYc7bQlIoXiW
KqcPjPuI/IZ8qMrNSloBgGeMuJ4iQn5shIZWbbgnJf5LcSO3SaPsLH80tnfimhkK
tj6+MMe9afss26DcNcw4mT3IljkSRjLxwsGUBBMBCgA+AhsDBQsJCAcCBhUKCQgL
AgQWAgMBAh4BAheAFiEE+ibKeEvhiJJ/IrmfZXDqARRvc1QFAmm1czwFCQpJANAA
CgkQZXDqARRvc1TGqA//dVrsqL7JOy5tgv9LrGpJcexxN8mx4+1nsd0ytuzh4kY3
cORAoRKS8mJgyqRfMqdPubB0cR3mqFll2MGoiBazhtapS/W52l+Ye/lMAXyIHFt2
NeM7QvHDeCSfwWKMYJCXnov9mUQWjyCAsebCFxODzrDLsgVjNdQxyYEJa6Dc8Zdi
Cs41ZSwtvjJyhebDwudSxFrDTFy7VBLDKJAd7EmX8usy+g0mDPa+zIZvzyqxcCZQ
6E2cLWpGNq1Azzqj1JJg7B8Gh+l1epl8MImAYa8/FtjuCtN6D7OqGGmMZPZxRjxs
4cHGveC9+PI3kAP8a/bq34TxJee+wFa83mMaBbtf7z8gh/lCdD42NJkMixTCzNw4
62tZslKd3Xz/OxuOKO8BZPTDlLidrfwbmZj9Jv85nYSVLnnu2blZWfKITz5val/o
5WC2RRs7VWU3b+QKk423vyLLiUM7nLleJheRi9QYoGli7/HBbMMUvooO7ayNJ+Uz
5nsl53Q1cyUS4cjeG7Wh5fDdQYZpvW8nGo4aoYV7UwRGiy3KpLt7Be/eB1IdOx83
yG5fo7tDypevatemaJZiUfdt/NMNOLJ7WPM7gV2ZTv1x7AosyXSErr8q+n0duQDf
2RdThiwYF9wnbDEqllfE1JXGgZeuFP0A9TM9V+CisD8OyN6qUj4H6gx2AiQrAXvC
wZQEEwEKAD4CGwMFCwkIBwIGFQoJCAsCBBYCAwECHgECF4AWIQT6Jsp4S+GIkn8i
uZ9lcOoBFG9zVAUCZAiLcgUJCF9qVwAKCRBlcOoBFG9zVA1jD/9+iHOocKEes6Xr
SZojnfev7AgxoWeoA9Lr5LiaVXmoJzK3YIS++1DiCCODtyOb+EpsMEac4CXT8KrZ
BWj5I0kYYGZ28+AKMLyjoNzgpoVbzA4fY5gwtabWTPEz9o7ugRY1LiCLeYzV5vbK
JPhSTqO0SND/uARzwHY9daO+32DDZEXSskNP0Qwzmn+FK4CN9M6ngF+cpflgzkbT
WIfsc+kaX4gCvptx3fSqgaYf+CnBasrx4xhBrdGQq0wUUtCl3uLjIZtDCDpd5jh7
bFcpxwIdHq3KEqpPJ6tlBUbUP3nEermaKnPzp5cCtlKjOGlp/9KWmUj9geqjfxH3
ig6pIDXdoGYhB/48pH4OIppHj+My3fzekf5ErzS5w1Ly54xZoOPjSvaiLFtD0DS5
I3m1yr/8imtP5rHaK4HBAQTeR5mMkHtQY2pdOe8Rbnb6GtSmovUbhg0adAG4vnqI
iUCqacpLRV1dY7EjZT4SfoCMhxECotkam2/3Q1zfeZ973piRrl0FZ2TiiL8U278m
coBxlA9iQHJoDw9BheycKaAkJCP/xoJE9V12PzeccAT0AQjef1o4PuOxHWB9gvA7
Dd8YmrHgxlZwcEAhQX/foUgdD7KBANP5vf0yl0Q0JbirXgZ8ABxj2eyPZ5bhhhF0
DNjdiKq/CtqO4/num76E5eKYjaoSn80wSWxlYW5hIER1bWl0cmVzY3UgPGlsZWFu
YWR1bWl0cmVzY3U5NUBnbWFpbC5jb20+wsGUBBMBCgA+FiEE+ibKeEvhiJJ/Irmf
ZXDqARRvc1QFAmL85Q8CGwMFCQPCZwAFCwkIBwIGFQoJCAsCBBYCAwECHgECF4AA
CgkQZXDqARRvc1Sccg/+PhbUiEh92grtmg87aEQskLS9wIkYHprSZU/eDfDoRqUo
ZCwDg/xu0oM12Otmo/o6w331FZ6cIJgBKd0oar1KZgh7sGeuv3zEHnbwbcGjbvU4
IApPUhq4nbvY20y+rLO+A1VdO1nLMoz+xf6XfpBGVFtWLlXGl1WWXvRrVTtjG6y/
MG0V5at1tVnu8BjeRKtfu1eNnw2PwLdSI8l0KC48FT4WPNyzqB8nueBxDVAeuOiQ
wUEZTyctwfIquKvVvaW1nTZ9b5OR7URWJJBci8Xxrzk6qSVXEoMW70SlkSDWVmjz
hQ0ZkMmluWlJtGd9CgFDFuZKni7idVGVhU2rMo2R//vD7G6QTXwvEVnbOp5W3VY0
5q4NtxNaagziZDLvSrv26JPqlOMSH+ZbVHvj69te3pApLGFXVhMPJh5u6Ywa73ib
0bmrBODr/DRVkafJXvLCrAovO0oc4EnDM/p7SOFLjVtNKEyVG5ijyU6AB6cq5f/Q
Qp1Oid/ej6an6qtI6WRUF4aJKOG/9OyoCJ5s6EkTW63DWJCkcTMpkaebjR/rtGBI
BSAqJlrAKRU+1Byfa8MB/Fv+vTz918o0JxeQYiwhA9yVFpKEIkUFo5cU7obWNUTa
PKPduBfFTL/H07wXcx5tpwo7NFE6gvgNI2nspOKXyQmrgSirFIklAyeFXuhtKbfC
wZQEEwEKAD4CGwMFCwkIBwIGFQoJCAsCBBYCAwECHgECF4AWIQT6Jsp4S+GIkn8i
uZ9lcOoBFG9zVAUCabVzPAUJCkkA0AAKCRBlcOoBFG9zVLqcEACHsPyCh0oGbS2+
+rgum1zaGGXv6WM3+06xT3r6dQZiTDkm2QwwLFjtBZD7QUVYJXpMf5fAKv037Y4n
7NyIRxQbNoghZVVgNkxnPvIr+4FZjc1z+1Y5KVqjXX0udHZAQiKrsdYKWSAcxDDK
Cf1J2DIicDd7D8KDokeB7skdbqcKT1/LrJVJlLQX+BgYC/j+eL1k7Fv15pyxGqup
1WoBh0wQB9Hn95cYSgILoSvax4z7KLbMQH+KXRmN2OcjeR1yuQZfxNqYbhbV7GCt
KwYDxDdVCxhHnxX8wCXZBITK5BFlDjxwUj9xbr6H81N3ydzQE1i1R7Agd6SGW2fA
ENPuCKXtvVXJoEzXi4lHBE71tYlrrHImVvVUDA/J5webC0+/d0Uo2MRF9mfLNPgk
qCnf0M8rC+YrAd23laUoO++9xhqzobbFEG6SONEztqC5NramRmHyqQrSw3OtyZZV
gNG2mvphRmWq3td3qAjax3JRrNES2tTDWC0U+mqFZUuOEBO20+Czgz2WWbxqRoT/
qbqFpG5b6bXisi+0oBn6TkkNx5bc/PeFYCvyh7MX44YoqpjL1z/WDyX2AAmEn9ww
w3xth00E5AID+cnOPRmYtgl8QF3X4Kie3jCpetxhtVxLQxtIyTWHkGQLy/FSbxqs
enlN9MfGcHLdtUrJzUWhc8Q2O5CTD8LBlAQTAQoAPgIbAwULCQgHAgYVCgkICwIE
FgIDAQIeAQIXgBYhBPomynhL4YiSfyK5n2Vw6gEUb3NUBQJkCItnBQkIX2pXAAoJ
EGVw6gEUb3NUZKEQAJCTE0FEbCz0CzNG0pucJwrn8HtNsHz8CxEX5BuvoPrpZ7k2
WSMunZm4ek0HS7fPOVdQ+oTznW3GmE1lMAzgvQSCZWYXBnXjTYcyVtN750iOh5Ce
K27FATZRPg9bCeGpEQ9fsz9bZDrte+rlveukJaZrfC2cUIu70KMYxyhEP6SZUMr8
qV3rcTnmqnVFs+wYIsPenVCft5bfH6yAr2If7Q5+27+vrU7753XMPNuc6Ca+USTv
JaDb5AgNCmrM40ndrfJ7/9JqF9rOjhfAgOKYMLgv8tmTjQcuA4cy832a1EIwlwma
pDtdZ732q1oEwbEoGrmfxmQI9UDzq4TIBsktR2eJLTPANulwTSc5IcxgqxbdH4P1
smQQPE2Up+AiqIKCtdeN2719EQbFSbeNsmUPqeooT/Jta0nQERLYMKYyKmmubn5x
JZaJDiuBokF9jZjHA0wXUj1BdcoCjTFa++MUH+NulfueJxjH6u1FXia/G7oTJplI
J8AqMyg+p0tP7WQ/hQbNXsLEf/9CI/OJaDJDJSvmj6+FbkcBufEYsOe4v7paZvlw
ZcOvvdHtGzs98EAtpJw/r7kysn2E1O3q7DAnvRV19T2jdQQicY592cFtZznI0WS2
47zJQqOAuMNHVFeqKWz4AtRrYjmJ+Ox/Z2VCGYKwCr0+S030376+T5N3MFw0zsFN
BGFMu5ABEADEfZGANkUDmr0bbB8rOyKD8PP8rH0f0wYtrIkSzkw0gm/Xt0b6YyaC
NGTg7RDCEbOaAPycF7UAleoTqGborYyldqNv8H3+8gU2A1D0ohpO0h6GQbavBfA8
Mt++A9gtHD58fSABVtLWYMNGujtEmvymXubyaLrdQRlDGSoXchnWkPu7J8Jw+XRX
dvl1bCjlSTLuEk8QW+PzMloFLph2dnxa14jEhHx4cw/CLZZAsnCfwtSobY4MwgyS
lCjvV/Z0KikJKrVRTYFj8kxqBulRd6TcUiM0gqn0pSPcUWRQW+WoqJ/6QH0zo/6W
UFVjScMKJ0rrXtXo0nBolRnNGAaKaK5bZDH1DBYdhwFuJoroQdp7DmCRXA+Uwkkm
HDAUCU99hPROGxWX+Slo6Om3INtFbHIYtpz6cte9VqLoSUkzvv3tlZvB1mFrtNhQ
DpjQk+vVyJVwWmKmyVeQ4rOrQaM89K5D35DnssZaglfRnWutq8BLu7MWE1s0yBB5
ucnl5+8xE7wMINRaIifbZUFHex4veUFLyx/Q+P6VEIEcny6wl/8yR9ZmIC5DJDX8
ScNqj/fA8PSms4GDHT3psUxae4D5h8FhydvpIBKljBgZOplT++nozU5Fae/F1e8R
gR96r5Fptqq9ngw3R4Pvlfsr6duFaGVa46NV3n0TntQ3TXyB0LYNYwARAQABwsF8
BBgBCgAmFiEE+ibKeEvhiJJ/IrmfZXDqARRvc1QFAmFMu5ACGwwFCQPCZwAACgkQ
ZXDqARRvc1RKvBAAg/+16IU3Rf432/OZYe/+rxQ9V0YdFG0oPXJvm/W3ewt7n2yJ
dwHSPfUlz1pIkb/ifKzFblu/MLTlWv5xXMR/Jagvs9a6UMV5C2EmqVbMe3Z8MIs3
tYYPal0crJfomKhl12kaQ8kUqBDCWopS790+lEaH2uKhCd0TqVgX6plfwVAbNLKg
il7GkT2dNPwj4iTMmz+ZcgZznX2I42HEEtujRF1y+qq/7h3LOyJwDdccaDnAjmBO
I37INnlyaG8FnOe6xhxJAEeHLwIcDz7RDR4ZCtEXfhCBTK7MowLYVCbJoEkmlxSK
NrmwSCOFXQmxqlU+PrM301R8VG7gtSE1DoIKj7l8tW2XFh1Mlv1YW63wY21TekBe
b9ifj/9iiuWxwrqW6csYHiZOOQU1na4sVnRTN+vWRPSYdSxfNdRPjtFQJZ1jxySs
2w+nihY702f1W/UaufrIzsNlPO9wISsR+cUn5hsj65MwyOijOZS3xlRtah/jWWET
FlOVgz/lTURHZlcb08JwlaK2sJ2sFb34pHy+WBaIL7piR5dWe0mZZqo6y+MkJJwn
RbVjE7mbIwfeu9V9BOuLtpQt4RscqvvNTh1LWitdZJ6/F3GAUZJyrFQNlLxpS87k
lV575q39Klc+j4oxAjgmDGE7GViYDDjwAuaEwPo2EqIk8pNGWHDax+edG4XCwXsE
GAEKACYCGwwWIQT6Jsp4S+GIkn8iuZ9lcOoBFG9zVAUCabVzPAUJCkkA0AAKCRBl
cOoBFG9zVE2wD/dBsf+cU5qrI2cGSBlfryBZp3XHh6D27e6+RASgd1YcYMv6HvE1
3sUHJpsTqAaxcC2Uy/CreQm7vORIwZFmuH/sYxFhfu9eNCQoToixMO6DHYtudaVA
MdfR/TkzLy8ZM7/WPF+uiDc5owxIJoZNL8LEt1gA8jT2lqRqmtp8AQZJ3Ff1hOIv
BX6+6QZiFoV3bcANgwDOVEPaDWhUk2YoCotXcsiwQrXzeNOOH2MzQp622+DKtQWk
JK/EFGyHCgAnTVoDXcxyYkaAIMY27U7SfEqTM+OFX8afPrjDrF+2jhapw+r+qP+Y
x8/PJF5Hf1O5YKWhUsJHRYeW0ngY9M64AFnn8WdPe/d1MgtnQT/IAXc9ffS4qTQ1
cR19rAx92xmK+Zh7tgXKbX5cpjc9gKwY3docP3//tEEInX2uZxPY4lc5UHZX8235
NXOEzS9cvMau/Pib5BrE7e3pg/y0C8ucJ4ombVW90Nht/Q3534xzAYUNcEsNdiS8
HDZjW51p7mEhV1kaLjthV9NKSaA6jfrAyOGI6MeWKMw8p+iHLjdqe/6cgVuPYCSS
5GTKITK5cnIvezCvYsZiYBsU5UWRR2MiSmw6JlDN7Jn82eTZi+SR0AJmy2mu67iY
+fFIP3CZvYkp/oprJ66LCPaEQRXqlntKjyiSb1wbuQ2TVYpTwVXENUMjwsF8BBgB
CgAmAhsMFiEE+ibKeEvhiJJ/IrmfZXDqARRvc1QFAmQIi5QFCQhfaoQACgkQZXDq
ARRvc1Tqow/9HzRDgb8JUuytcwRaGJ48geY9h8svWC68s2L8rdihwwVKWhTpCPI/
Yuxx6HlLPk0H/7GvqnqcamZzkUQbGvbRKhfIR8kI1Zc1H7jOeRLOREfUUn5A5h2V
kIVoYZpDNOSOLjuF6hb2b22j90a/x8prfhUujvDO8PcXJh0XbuVIY2pKIg80VLyQ
ZLmbR9UMc/aOAWOJaNxdFQbvwrMfhhqeyx7kpM+PZ2bzNv6jfSN93x0zVxx3cVq9
DviSOttO5tBaxK1M0wGb0wvu9KiKuzk/d3w00sdIwO2Vl/M19YqTG2FljU3zqww6
h5xo6Xyt8EgqtcyRYldEOjPqjxet3/4l4HIMEa4zmMAxPSZDlyQHAU3lDuR63Rz9
iiYplDe6XdXjh5LyGaLN5Y0zavjHcNUlr7i2xd5MtJZZfv3PbvpKpLFC94p+cmHR
qTyrS2okBzqJ+W9SMghblztpJ9y6X67r/xLRPvicQd8GGkGNCb0ES6a3WxJ9cZg7
vstd6a5gNal7a/QE7SPmEGyxicn+FQNeDLb5swlfOiEmpgSNKz2B1MOyQPrH1nWx
Me62KRTD+DiDHFFOEfaXhiEFvqS7By33HN5xPb89XNeSOe36DBDo8d3JNaPT/8tk
IolWq6W4bebLIIwAsicGQnR3PBcofRUd7w9i3Xy0QYYGQpRWzEFcEF4=
=97xh
-----END PGP PUBLIC KEY BLOCK-----
