pub   rsa4096 2011-10-21 [SC]
      9F9D45FE50AE361530983792C7271D0A49B18BA7
uid                      Herbert Xu <herbert@gondor.apana.org.au>
sub   rsa4096 2011-10-21 [E]
      98EFB9D50B6A6E5F1F11590313858CB6FE0D9A38

-----BEGIN PGP PUBLIC KEY BLOCK-----

mQINBE6hfV4BEADQvuRMYfzI8XsCD9YZTSepGykCheZDB5a65sj99V4rUjTfKkD8
rwFtt3MD6w8fxUGh/lA+sOqDzMrmrJNRMocN+HHoWhdeJ0OjVq0JpAZ1TfiWhfde
TOQNlcjN3bI7TeBcNgf0SWgdbEL3xGHi02HgwJZaG2ITwGiiPlfdVb4WleJn7h5t
1WmhM7q98b+euCn7cHkn1bK8qLAZEQvDgvScPsLYJQM6dyyFNBqtDQIqnlKoWxCR
tfaSO1+LQ4O48r9RhMUXTow8fxjqe39RNZFdeGq5DvfCFXRcQWgyamEjafDN6cPt
Ghg9fhgkRTJnI6s19O7QgGH/loH+VEW3SUVVTI1wy0gnnYECOt3f5N2RJ1O2MjSg
LCeS1lq6hq5FivUQeqJMqP4GQsVSzfXBWof7xOuKAozboDOg1Z6JBt8j8cawWch/
h2rDT4x9hIE8gNJulcZuQZpplo5rbVnRtVR5ys6IfW9j/li8gCTHPdeNTvgAcX2j
7JFARcp3bT1jA1AeE95yk1E3szqC8iFwpjHQ05jt+F0/ImynFF/jDqxi7cLBid+d
QimeLCjKBBnGC4qFwQfBh8/2/2s5CaK63OK5uEbT0CvcsXadSWtnM6sdA5zEjAWA
hnaC9PxuT4nzc04X05pVgA4HNrbZ6KDaBcg7CCF6Lj7yDl83a9Sfw6y0ewARAQAB
tChIZXJiZXJ0IFh1IDxoZXJiZXJ0QGdvbmRvci5hcGFuYS5vcmcuYXU+iQIcBBAB
CAAGBQJOpuM7AAoJEOe/yOyVhhEJSasP/RUPUiiq2jzgtAyGJGHb4UXfRCaTXLdL
Qe2WnSFKT4koqIHCtRQFXNjluq45wnV46D8k+DRUyp6i0pDNGBdukQMBqvKYwxqh
KZbdH+/yFJFiBGL9jYEqtXQOXJtH2aPFrbRW8nktTIgDQHe9FSEHLB0Z/v2xaYV0
2z9h0FyBJLW/gOwnMd6ylxRlNQMAYVHBYod8egGATMBjuWySmGFsi8A6xi6Wz2pW
EVH81vGbHQhAnmSQMhiOreQIISpPGP4ABJRHEnZqa89yHjQjpQOCvewFy+01mHwe
KPPvbsOq6Q6InD5mWpkp2Gsi5FOhVke3HrBUvexkjqkLvVvRJIflmfvmiUZwQszU
7LB1O8a96V4ZB4k2D8GRQ5m4GJms7r9xOD5TmVDaVIKhDv/tI6oeahF9CcGURlUd
xAXUnc62zTJYOGxupB6AD8VEZNhgl0UhX6BTrYXdOIR+ZTMH/HKyueS2lebOI17m
vjy1M9uGTT98fI8aDFP8muZEevKxDnQqsQyjEy9EGnC3vbpTds0Fj2FzT5Vaibqd
se+muKdQxL1qv68SXXhZ9J+Cuvujj6kboVFdmojWOlZ53LNONvvXOOq3exk12rrh
mcejQIKlWxrFlhlb1k869wfG4zMG6CGxPoaRzRdXtE5x0Y/08/5S7cbj4izHKWJn
FFgYqWp1dXXZiQIcBBABCAAGBQJOpxi/AAoJEPfTWPspceCmplYQALiIKtARhs1g
pf971d1iascy2ZTeUCvt0iQfLpn5XdpGEDObGY4nnx0VmHOpU0/uZEUcvt2o6Gfa
a9dG9NK6o04VyvlKs78RnAXMudx8diig56dWh22B1KTZgTsqsFuf4t+KO+KTLrTs
MczoaNngwmbQoMo1cIFM8RmkxJFVyl5XLNMhifLiRmqWnI5Gib73zqnrk/3qJO4S
l718f7pdOs0R9fJQX7Mmt7hz/fZlbDKyXrmXrtzBJwREUGazVzIe9ZyDwa84Mu8b
BzyWsSAkHPb2b6q2vp0r8HZ9zeY2uTpOpMCEz4r7drlfITOIEoMzcDonRX4ijlsp
pVfE5M0zG7vyUx3tvtjC5hYTGhqwrGOqi8Kb7l1372f+lkHXB4Y/3occl9nrmXkz
HGj1HhP10JkP/IjyFtgbUY7qCh/AJCBwO3Z4Wn/T9yN8USEj/nP09dPjTClsYs60
CWEkosSLYjcs5aI6P1JqnkQlU27ZfSbLz+6IyHRHOq0KAv2/HsDPgXhqSaHbwwqm
7AICddlAFHnb5xgN7pS/GTZpqZBGLTkAFxSxYAiAR/vvZFR+GPam8elHgL7TlxIi
fW0VuEqyN09J0puc4serb/mr4ivPuAyZr130LZf4UcGZIs0bI2QffDlyBxRztif0
5Lr9eQTV5xvHtCes0dqbuxQUe28fDtndiQIcBBABCAAGBQJOpx3tAAoJEICnf2CV
zeR+7UMP/24NXW8CYhIaoK79iOERa2ZnGDJyeZMKpam2YzVdpXKQDID6IsA7P6oe
UtdcrrGRlp4UsBMX6+kKnwEx3BUE+rs9qyzM41XdgPXpmbj56RwPhVomu3Vdj0wK
9zkd4w5dtatp9URbySwRsUXJuQ04pp0Pbf4BZzs3nIPAsZpYMRnUrENlOuLLw/2D
BiV5BgBhsqOq13bLXUsYAHffaVc2f33+GNFQPLqxJeL1tCNR+MSKz/c7JokQqpzG
ZO22NNPBLAWN+7h0kV2K9OD9eVKF3IK2h4c225UsbwvRrUHebJPSWETr05XiB3Mc
hkOa+4Oz7uanuYNl4oAsvOCTVMI7R8OShPHYbriNTj0kK/uDacV624fwaYIVHZU/
2OPxtLm2ZLwwxtybb6Vc5PU4TJjN6O8oDSrTxs76NgG4rs7lPGcYLSGBzj+020Ae
GuFm8srtdnOraXuNrFlcMtwhh/j3DKLAa68/noacwAMiZ6y1duTlPNPdOztPcGXB
K0bwIAwsO4LCPSgxXlwNI4hPsDiTy+n8vXH189f6mZTgKoBfJPrijSpntSPhNIxQ
6NMBtDGZcxYmCpYQdlN9kqJ26cq27oF5eJviaxL6RbW63+9CIuT7pAUcy+CBzmfn
zqUopKi/c5PkAOh3wBQxuxyhvfPW2OUYUKntQPmAQgjrflHOwdYviQIcBBABCAAG
BQJOqGYpAAoJEODzc/N7+QmabfsP/14IjVzFtL/fK1oh4fco3Wn2iCAfn0qm9ASE
1Cgml5j70Zar3vSN0HSwK+n2R86Rfrz5ccK+Jg6HbfHshvzD3mYA+W4T83wRIC07
3Fzxb5RckcffK+sVmtjWXHi7MFPODcUWRZRmU2Ol+XwrOqR7cW2m2T/kFvpl/O6a
IHPvIJcLM3UNvvr/szuqmFxNmUbb60BdLpk/MHK21oc4yv82uI/xO6A57gLszJhy
yVO1CAnWZGgNFADso1EdBUAkCV/cC6JLi5dic59NfTT4BSZPi/6MllN6dexBaFX5
/hLiJIhXWJqbk2DwzFa7LMIX45932RnuRCzOdrTCVL61oDcXwJuBSPiLfwJF73d/
4fVFi3SjBOYIF3gBF5CwxJS99CI6gDV3dBW5YZVDCIAKs9SFN6aJVa0esNBCVEXA
rZoMfpnRLiVBxNpI210MmzAgKM0ua6m1F7Ti+ImxXVdrllEIPHV6wWy94RxJY6rS
UvzOYw3TtnsutH0T83UU/Hr40+hPOIzmpia7vh8lIfj9nTxhjEnbQtO5OCHGa2Ne
9/BiGOz4uVDym4dR2tSpS714lGEUj2LubbrFVRFAVw1lxAEUUnbWaH7DXiLadhxA
t5PFTfvhyMItPippk0/51DmqhchxjsBFsMt7/v7yYnDZpD8/maP1Bfbx69L3m14Q
KyNdpwi5iQI4BBMBAgAiBQJOoX1eAhsDBgsJCAcDAgYVCAIJCgsEFgIDAQIeAQIX
gAAKCRDHJx0KSbGLpzpQD/4raMXj1+JoPMeJl99sjHrxl9Ucx+M/m9aVrGbFAili
GaKtwzZlYKuIeLurkHidyfr4JzB8bApXWOsheqb9TJf37x//Vv70Bhr+RCk6KFms
MdCTEegwn2fcQU9LmAiWPLtRCh8oRrkvY8TUPnfdQjh8Hh1CWCUW7SPRHi6mFwvR
C9FhE+H/B8JzKaVPD+QPF3jiHAn//MgOL+j/nEF/MQTwh8osiIE0Cc90vG3Sp7z6
+I3r9IwYmPwAboWdupEY2Ph4DXYioDtEvStOtExwyWFbee5pzDSZP+BW6TkLDRYL
q7RKe22dzCM560rxG5p+vvNIwu9VtknJjqkpvA2ubs/arnkf72562yQFNY+gcyz7
LAQL9Nnm4Ufo+8RihZgXdvvPGQQiUUsb/zU9MF/cPDYovohjOQWb88MaPLjqAjwQ
UL4wwflEmakpkoO39euIaT540azHJMC2hAxRraURMJ5Eq7+lU58gT98BowV+Rh0X
rGH1NVI1YiKL8yr/SE6sTEl/oQFjq1IQwE0jtYqhOkN04ERO1W1LIinPuoW+3fP0
Bv/LdXyAuxArShFENfwNk9YaQMjavjpumULTnPM+zyRkggY7/Gou1tpRocxAH6nd
1qHU8riPOLfk4UMnsoM3FR4HfIoSLArkxHCilZzqKE16upzPzREszVqZdHDv2xW3
kYkCMwQQAQoAHRYhBF7ZpI/FTAoi0dCATOvCbNtaVt5zBQJqAe4AAAoJEOvCbNta
Vt5ziNgQAIr1ktm9PTiw7BVlcSfd8NYmRf8JJXGdtzaNPXNXtEggnOeAs8OTlFIr
tbALoINkigZAB59kYBxXBigFL3ID3Nndj26znxFPVNq72d7Fsv897ohMH/X5n7fY
dLcA+25TST09ZPfeaTyrTtfb04EY5XmAPi4Gq9S1QoOxXzISBQKpgCDRejJZd4bO
A4Vg5C20394kcccrdFPhkD10QniU4TKV/cWJF7MvycFk+ajBfl5T2WtYAjwIFJ+3
rhUF1q6FDpM5mk2/AbMxmOdh6IdKfJBoc3czrdlJ795pvLxMXbgnqDL64sXeqbZ7
1d+wDOS/wUb5FRgDNZPK7uDf3lC3a2l1jPOiCvDuvziJ0mFFeSMeyC30mSp0GwZX
ZvPCtgjG82co2CJ93c9/25FbeocAxABqPegxd2PjhVkRdTdoMK5RGvJcbWOTlDkV
mrx09i640cva/vl5ENG03dA25RweHomyHMrU9vUCpQ59CTS6wWWANsj5Q+e6RBTZ
xRfS4/LiVc/y7DpbSug0m59Ji7LkokjSMfDcw5YVv8NdYc8TQ9N774l/MGe4wH1a
DWIiGPg32YLz13pb7EkuMLjtXv+TekjFXcMfIS+YGulSBgDIyv8SMmT7bKGnqaEI
0iPQv6n5tSknVjceCA6Y+7xyYSIJ3+tZxqw9zYjynMVXp9MBJJ99iQIzBBABCgAd
FiEEk8YJmhQidqKLvjXYFbyDNEMDjYwFAmoB014ACgkQFbyDNEMDjYyheA//RtfT
BkaO0gqQFG7DP35CcQMTEbz7yuXLs3SZsPrJwTkzFDgQAJMa6z/NZezwbuigs7yx
sc+26VenYnfQN91co4MtJSJPlm+t5UFdIdsDa3DtRwCPQ/HqoJJhsFlku/GkcgF6
+bWwiA8ygCP9lMtLJb+OkqnY9AgkooIZ8Jl/6YgdkhitSN0XjnaYY4lTPGVS7BsS
QT/iHwE1vG7ZyWdj+97NmZeARbpeqsQHySh5U5j8xBtcVIDraY9E4CuhmGbVVVYp
WAz0AqjoGpDtcmwJyxWouat/CGON7yj3CYeR2SVN6H+FHG8ZFj/9kZhKewLeGsbc
Ekq4T5pQyHsz22JmzQIU74bCYnwxaqrWec+8iCZsnBl1OmTPaToLPwuFv8dPY+i2
k1PHLwxsnHYMIEzxsoSjUHI+Z2io8HlpNt6D1ovTjK1FAlHjY5XUE+FYG7t77OpB
wGwQ7CqWvHvoi2C0DEk/FpBXzRtg2iLMYUrEX0MrLWdct4jqRpJUtL0ncIGSJZfx
aNu15Oxfu/OSK4MTDyaVa57g+K5oKVcmvlFWh0RzeypfmNxwvYFYy0GhVBH7lth+
QyIRyPD2TSqn3MIDRznbWyhLOe2qHL8GZM/cUp1PJH80u6B+Jwc3dGaLIHkQz/bQ
Zx2kMXWtuTnN4hTTPwSWyQXXGXbfGjOF2pLntL+JAjMEEAEKAB0WIQRQ6+1IIWov
Fj/unHeNzjVWMCLlegUCagNSrwAKCRCNzjVWMCLlet/6EACY68l4WEXth968WpIU
P9WfmSWNn4fuhD2Gh3c1m1AAVXmi9gWLdFj6yV5Mj+J9pV74L91O0ujrPw4lmUv4
bwApFyrW8Sn3PRF/koXMvj02Asllv8SGiyuKienYhxIBLWdoLb+ZQW8A4xEWWcHz
3DtoPW8h0Q5Vrp1tOTmYfqH+GXJqxn5ZSoKWMpQzZ9repBXyRTKtnVhHp3+oXKRT
0pWIjLJOyL3M51es/m9P0jILVWgOWdFghOGT5Vp8zLo3pPxYdDsv+dr3crEMabwQ
JdO2TG5fuDdeIL1WVp1YU4BheD0TUZl8SivAvP6HsYd4rTdJtwgp/fQ0nQ5cwuiP
wWfmr5xZM+8WDztWLQzSxXTAEnPJ++1HIPdjo6g0WygHTHwd7bAlVYCn3zLkViWi
8ZsRfYWjF3eDJRnILW16CWO8Q995T/1Oi1J3XBodn4SG966r8aXrWUvFTIE0zSnK
SjiDVm4jGX11fQb0ygcyJefHyj9nWol14H3sr5WsrCBaPYIgalAySsPmzRDsThHR
EpNoUjFR/E3HowDJ3An/8AnBIq1bWhKWs3oLpSavMqnh8P0BwS2obvaPdeyuz/NZ
YcCMWb0CwSX64ZAoFvwcik4G3aKtdfhRe4RE5YXhAd3ZhPmjYygDqIBcCMqNIbYr
lTnx1N2aBU6DBO5tC97TSA50OrkCDQROoX1eARAAqampWZqJ2SFI+els0jjeiFdx
rfEV9l32nICleX6T8dEsH1FvP/adjUuhjYefgLI9hBpXda4WB8Eok24E61b0zww6
uzfOS6CozhYZjI+qKeRgxKGUqyNAFAryOoHOTmVJyhbPbckbUBDtwRbeNiha7xU1
jPBcTCFuecWFhgDqb/UHWUqbXtzPAhT0giuTywsOuoAKDeVJY5FhugY1iNu0lgfv
VPWukfGBZ6NvHtcXUj3ka6i56zI9t/KEzEQ3UxDb2iQwmdpIeg+wWdPB/OaZ5Pis
w7Lnc8Y74C+GzaiDdVUPxWPsRVw2+aPyuvtuo8+8oDVEolLrG2o2EzSlXMYl2SvU
YXF27apAjJ5Qn/WlSKyBfcX8T9Hvn1C9aXgOeU42n9lFDShV7DU7I3iCY7MoBg62
5n/FdP2HjT674cGfpYBwklfMMmFPiY8Ej+lrP57JRIsxQ4buTM+JhHLyLl89Ud1R
3D9qVC23dTeuqNTCsy5+c4Yq5wl3h4qyFrvc/deKFeZyqgX2ixqyKJEGiVGF/6VI
G/6cA9vUwPSI6ZY/ViPkfFOPMnhpEks6ERCPwC+R94zfs52xRLRLFYwey/Ovf6Di
4gpuI2VPd+1PWcVTMvUjdE4Lzf3zXddca3NfKWaOUz5vv9V4e8MDw4/eZonc3/oK
8d+37uhcPYSGmd/MkAMAEQEAAYkCHwQYAQIACQUCTqF9XgIbDAAKCRDHJx0KSbGL
p4w6D/4xzqAdayezJ6T6KqpBsZWjrzZlKcZui8O8oHE7M7r2QXX65/vvFZT4o6bW
Oftdy7UDpT0XvSOT1mxW25Pgy0u9LXUHaITh9sjdwJZKzft72vXIVJXitmZEcft7
zdZNvi8mIcQHTiYRaRDZg9XA5/x/1PBFAnOO7r0R08JNhZSR/MBT8KPrPQ/Wjj7D
cAtsOwVwNW9PA9bkmoQGdbPaAtRprYoa/IgSzzOW9atSdXJGKhtvuQAtMv+TPGJq
8AQGvBIgQVZ//LZkL58HYgh8OVCQOVETvgM2p7hh0iQof8foq3BEKcl5DmJE5la/
iH1RLIM6xH2oB9B2Hy5itytXiOslCUIWMPD/mpvSKE15/N7q+1xh+h/r7pvWrKmQ
VU2MvRemqZoLa1lr/QEckHy1LusCKLpEhcwe6p3GPApmORNoZmUBJYYk6Cy8/+9z
t4jRzXuJ19tuMvo278DJViXBJMOvTvTml68/EO+HcJRUTZv8mi5lzwlhOmEFWDIF
cfhOhvJ2E8BfW7rROG/9PDjMt/AhqQUo3bTTPbE+2NDWirvCfpFbu+Y5gmLLDmIU
p7dzZtWvvOo04ofhgqcHy83r/HJT/OO6po3TaqLKGf3EQPPmn920pVCOjopywYGX
CkFBnx4lKC5BlAHjX1HlGR+jiipPt+0J62Z8v7J8PtQZ3c+2pQ==
=z0Gg
-----END PGP PUBLIC KEY BLOCK-----
